!!!!SEGMENT: pl-wtm--r-704-m--009_moniuszko-stanislaw--widma-no-5-dzieci-nie-znacie-mnie.krn
!!!cenid: 18xx:3064
!!!COM: Moniuszko, Stanisław
!!!COM-rismid: pe30008351
!!!CDT: 1819/05/05-1872/06/04
!!!CNT: Polish
!!!GTL: Widma
!!!OTL: No. 5 – Dzieci nie znacie mnie
!!!OMV: 009
!!!PDT: 1852
!!!AGN: Secular
!!!SMS-siglum: PL-Wtm
!!!SMS-shelfmark: R 704/M
!!!SMS-shelfwork: G
!!!SMS-variant:
!!!SMS-altvar:
!!!NIFC-rismid: 1001093778
!!!URL-scan: http://repozytorium.nifc.pl/skany/pl-wtm-nut--r704m
!!!ONB-nifc: UWAGA: skany 0027 (prawa strona) – 0031. Nie wpisywać tekstu rosyjskiego i samodzielnych dialogów poza krótkimi didaskaliami.
!!!OMD: Lento.
!!!key:
**kern	**kern	**dynam	**kern	**text	**text	**dynam	**kern	**text	**text	**dynam	**kern	**text	**text	**dynam	**kern	**text	**text	**dynam	**kern	**text	**text	**dynam
*	*	*	*	*	*color:red	*	*	*	*color:red	*	*	*	*color:red	*	*	*	*color:red	*	*	*	*color:red	*
*group3	*group3	*	*group2	*	*	*	*group2	*	*	*	*group2	*	*	*	*group2	*	*	*	*group1	*	*	*
*part7	*part6	*part6	*part5	*part5	*	*part5	*part4	*part4	*	*part4	*part3	*part3	*	*part3	*part2	*part2	*	*part2	*part1	*part1	*	*part1
*staff7	*staff6	*	*staff5	*staff5	*	*	*staff4	*staff4	*	*	*staff3	*staff3	*	*	*staff2	*staff2	*	*	*staff1	*staff1	*	*
*	*	*	*I""Chór.	*	*	*	*	*	*	*	*	*	*	*	*	*	*	*	*	*	*	*
*Iempty	*Ipiano	*	*Iempty	*	*	*	*Itenor	*	*	*	*Ialto	*	*	*	*Isoprn	*	*	*	*Iempty	*	*	*
*	*I"[Piano]	*	*I"[Basso]	*	*	*	*I"[Tenore]	*	*	*	*I"[Alto]	*	*	*	*I"[Soprano]	*	*	*	*I"Widmo	*	*	*
*clefF4	*clefG2	*	*clefF4	*	*	*	*clefGv2	*	*	*	*clefG2	*	*	*	*clefG2	*	*	*	*clefF4	*	*	*
*k[f#c#]	*k[f#c#]	*	*k[f#c#]	*	*	*	*k[f#c#]	*	*	*	*k[f#c#]	*	*	*	*k[f#c#]	*	*	*	*k[f#c#]	*	*	*
*G:	*G:	*	*G:	*	*	*	*G:	*	*	*	*G:	*	*	*	*G:	*	*	*	*G:	*	*	*
*M4/4	*M4/4	*	*M4/4	*	*	*	*M4/4	*	*	*	*M4/4	*	*	*	*M4/4	*	*	*	*M4/4	*	*	*
*met(c)	*met(c)	*	*met(c)	*	*	*	*met(c)	*	*	*	*met(c)	*	*	*	*met(c)	*	*	*	*met(c)	*	*	*
=1	=1	=1	=1	=1	=1	=1	=1	=1	=1	=1	=1	=1	=1	=1	=1	=1	=1	=1	=1	=1	=1	=1
*	*	*	*	*	*	*	*	*	*	*	*	*	*	*	*	*	*	*	*2\right	*	*	*
!	!	!	!	!	!	!	!	!	!	!	!	!	!	!	!	!	!	!	!LO:TX:t=P:problem:nie uwzględniono tekstu rosyjskiego	!	!	!
!	!	!	!	!	!	!	!	!	!	!	!	!	!	!	!	!	!	!	!LO:TX:t=P:problem:oznaczenia dynamiczne z kropkami:global	!	!	!
!	!	!	!	!	!	!	!	!	!	!	!	!	!	!	!	!	!	!	!LO:TX:t=P:problem:nieczytelny napis nad nutą [prawdopodobnie "Widma."]	!	!	!
!	!LO:TX:a:t=Lento:note=podkreślone na niebiesko	!	!	!	!	!	!	!	!	!	!	!	!	!	!	!	!	!	!LO:TX:a:t=Arja:color=blue:rj	!	!	!
4BBB\ 4BB\	4F#/ 4B/	.	1ryy	.	.	.	1ryy	.	.	.	1ryy	.	.	.	1ryy	.	.	.	2.d\	Dzie-	Opi-	.
4r	4r	.	.	.	.	.	.	.	.	.	.	.	.	.	.	.	.	.	.	.	.	.
2r	2r	.	.	.	.	.	.	.	.	.	.	.	.	.	.	.	.	.	.	.	.	.
.	.	.	.	.	.	.	.	.	.	.	.	.	.	.	.	.	.	.	8.c#\	-ci!	-gli	.
.	.	.	.	.	.	.	.	.	.	.	.	.	.	.	.	.	.	.	16B\	nie	chi	.
=2	=2	=2	=2	=2	=2	=2	=2	=2	=2	=2	=2	=2	=2	=2	=2	=2	=2	=2	=2	=2	=2	=2
1r	1r	.	1ryy	.	.	.	1ryy	.	.	.	1ryy	.	.	.	1ryy	.	.	.	2.d\	zna-	più	.
.	.	.	.	.	.	.	.	.	.	.	.	.	.	.	.	.	.	.	8.c#\	-cie	mi	.
.	.	.	.	.	.	.	.	.	.	.	.	.	.	.	.	.	.	.	16B\	mnie	rar-	.
=3	=3	=3	=3	=3	=3	=3	=3	=3	=3	=3	=3	=3	=3	=3	=3	=3	=3	=3	=3	=3	=3	=3
*^	*	*	*	*	*	*	*	*	*	*	*	*	*	*	*	*	*	*	*	*	*	*
*	*2\right	*	*	*	*	*	*	*	*	*	*	*	*	*	*	*	*	*	*	*	*	*	*
!	!	!LO:TX:t=P:problem:diminuendolike accent	!LO:DY:rj	!	!	!	!	!	!	!	!	!	!	!	!	!	!	!	!	!	!	!	!
2.D/ 2.G/	2.GG\	2.d^</ 2.g/ 2.b/ 2.dd/	ff	1ryy	.	.	.	1ryy	.	.	.	1ryy	.	.	.	1ryy	.	.	.	[>1d	dzie-	-vi-	.
8.D/L 8.F#/ 8.A/	4r	8.d/L 8.a/ 8.ccn/	.	.	.	.	.	.	.	.	.	.	.	.	.	.	.	.	.	.	.	.	.
16G/Jk 16B/	.	16d/Jk 16g/ 16b/	.	.	.	.	.	.	.	.	.	.	.	.	.	.	.	.	.	.	.	.	.
=4	=4	=4	=4	=4	=4	=4	=4	=4	=4	=4	=4	=4	=4	=4	=4	=4	=4	=4	=4	=4	=4	=4	=4
2.D/ 2.G/	2.GG\	2.d^</ 2.b/ 2.dd/	.	1ryy	.	.	.	1ryy	.	.	.	1ryy	.	.	.	1ryy	.	.	.	4d\]	.	.	.
.	.	.	.	.	.	.	.	.	.	.	.	.	.	.	.	.	.	.	.	4d\	-ci?	-sa!?	.
.	.	.	.	.	.	.	.	.	.	.	.	.	.	.	.	.	.	.	.	2r	.	.	.
!	!	!LO:SIC:v:n=1:s=8.ccn/L	!	!	!	!	!	!	!	!	!	!	!	!	!	!	!	!	!	!	!	!	!
8.D/L 8.F#/ 8.A/	4r	8.d/L 8.f#/ 8.a/ 8.cc#/	.	.	.	.	.	.	.	.	.	.	.	.	.	.	.	.	.	.	.	.	.
16G/Jk 16B/	.	16d/Jk 16g 16b	.	.	.	.	.	.	.	.	.	.	.	.	.	.	.	.	.	.	.	.	.
*v	*v	*	*	*	*	*	*	*	*	*	*	*	*	*	*	*	*	*	*	*	*	*	*
!!LO:LB:g=original
=5	=5	=5	=5	=5	=5	=5	=5	=5	=5	=5	=5	=5	=5	=5	=5	=5	=5	=5	=5	=5	=5	=5
!	!LO:TX:t=P:problem:diminuendolike accent	!	!	!	!	!	!	!	!	!	!	!	!	!	!	!	!	!	!	!	!	!
2G\ 2B\	2d^</ 2g/ 2b/	.	1ryy	.	.	.	1ryy	.	.	.	1ryy	.	.	.	1ryy	.	.	.	2.d\	dzie-	Opi-	.
2r	2r	.	.	.	.	.	.	.	.	.	.	.	.	.	.	.	.	.	.	.	.	.
.	.	.	.	.	.	.	.	.	.	.	.	.	.	.	.	.	.	.	8.c#\	-ci!	-gli	.
.	.	.	.	.	.	.	.	.	.	.	.	.	.	.	.	.	.	.	16B\	nie	chi	.
=6	=6	=6	=6	=6	=6	=6	=6	=6	=6	=6	=6	=6	=6	=6	=6	=6	=6	=6	=6	=6	=6	=6
1r	1r	.	1ryy	.	.	.	1ryy	.	.	.	1ryy	.	.	.	1ryy	.	.	.	2.d\	zna-	più	.
.	.	.	.	.	.	.	.	.	.	.	.	.	.	.	.	.	.	.	8.c#\	-cie	mi	.
.	.	.	.	.	.	.	.	.	.	.	.	.	.	.	.	.	.	.	16B\	mnie	rar-	.
=7	=7	=7	=7	=7	=7	=7	=7	=7	=7	=7	=7	=7	=7	=7	=7	=7	=7	=7	=7	=7	=7	=7
!	!LO:TX:t=P:problem:diminuendolike accent	!	!	!	!	!	!	!	!	!	!	!	!	!	!	!	!	!	!	!	!	!
2.DD/ 2.AA/ 2.D/	2.f#^</ 2.a/ 2.dd/ 2.ff#/	ff	1ryy	.	.	.	1ryy	.	.	.	1ryy	.	.	.	1ryy	.	.	.	[>1d	dzie-	-vi-	.
8.D/L 8.A/	8.a/L 8.dd/ 8.ee/	.	.	.	.	.	.	.	.	.	.	.	.	.	.	.	.	.	.	.	.	.
16DD/Jk 16AA/ 16D/	16f#/Jk 16a/ 16dd/	.	.	.	.	.	.	.	.	.	.	.	.	.	.	.	.	.	.	.	.	.
=8	=8	=8	=8	=8	=8	=8	=8	=8	=8	=8	=8	=8	=8	=8	=8	=8	=8	=8	=8	=8	=8	=8
!	!LO:TX:t=P:problem:diminuendolike accent	!	!	!	!	!	!	!	!	!	!	!	!	!	!	!	!	!	!	!	!	!
2.DD/ 2.AA/ 2.D/	2.f#^</ 2.a/ 2.dd/ 2.ff#/	.	1ryy	.	.	.	1ryy	.	.	.	1ryy	.	.	.	1ryy	.	.	.	4d\]	.	.	.
.	.	.	.	.	.	.	.	.	.	.	.	.	.	.	.	.	.	.	4d\	-ci?	-sa?!	.
.	.	.	.	.	.	.	.	.	.	.	.	.	.	.	.	.	.	.	4r	.	.	.
8.D/L 8.A/	8.a/L 8.dd/ 8.ee/	.	.	.	.	.	.	.	.	.	.	.	.	.	.	.	.	.	8.r	.	.	.
16DD/Jk 16AA/ 16D/	16f#/Jk 16a/ 16dd/	.	.	.	.	.	.	.	.	.	.	.	.	.	.	.	.	.	16d\	przy-	Guan-	.
!!LO:LB:g=original
=9	=9	=9	=9	=9	=9	=9	=9	=9	=9	=9	=9	=9	=9	=9	=9	=9	=9	=9	=9	=9	=9	=9
!	!LO:TX:t=P:problem:diminuendolike accent	!	!	!	!	!	!	!	!	!	!	!	!	!	!	!	!	!	!LO:TX:a:t=Recit&colon;	!	!	!
2DD/ 2AA/ 2D/	2f#^<\ 2a\ 2dd\ 2ff#\	.	1ryy	.	.	.	1ryy	.	.	.	1ryy	.	.	.	1ryy	.	.	.	[>4d\	-patrz-	-da-	.
!	!	!	!	!	!	!	!	!	!	!	!	!	!	!	!	!	!	!	!LO:TX:t=P:problem:triola bez klamry	!	!	!
!	!	!	!	!	!	!	!	!	!	!	!	!	!	!	!	!	!	!	!LO:TUP:a	!	!	!
.	.	.	.	.	.	.	.	.	.	.	.	.	.	.	.	.	.	.	12d\]	.	.	.
.	.	.	.	.	.	.	.	.	.	.	.	.	.	.	.	.	.	.	12A\	-cie	-te-	.
.	.	.	.	.	.	.	.	.	.	.	.	.	.	.	.	.	.	.	12A\	się	-mial-	.
2r	2r	.	.	.	.	.	.	.	.	.	.	.	.	.	.	.	.	.	4.F#\	tyl-	-m<..>	.
.	.	.	.	.	.	.	.	.	.	.	.	.	.	.	.	.	.	.	8G\	-ko	dap-	.
=10	=10	=10	=10	=10	=10	=10	=10	=10	=10	=10	=10	=10	=10	=10	=10	=10	=10	=10	=10	=10	=10	=10
1r	1r	.	1ryy	.	.	.	1ryy	.	.	.	1ryy	.	.	.	1ryy	.	.	.	2A\	z bli-	-pres-	.
.	.	.	.	.	.	.	.	.	.	.	.	.	.	.	.	.	.	.	8A\	-ska,	so.	.
.	.	.	.	.	.	.	.	.	.	.	.	.	.	.	.	.	.	.	8r	.	.	.
!	!	!	!	!	!	!	!	!	!	!	!	!	!	!	!	!	!	!	!	!	!	!LO:DY:a
.	.	.	.	.	.	.	.	.	.	.	.	.	.	.	.	.	.	.	8d\	przy-	<....>-	<
.	.	.	.	.	.	.	.	.	.	.	.	.	.	.	.	.	.	.	8d\	-pom-	-<...>-	[[
=11	=11	=11	=11	=11	=11	=11	=11	=11	=11	=11	=11	=11	=11	=11	=11	=11	=11	=11	=11	=11	=11	=11
!	!	!	!	!	!	!	!	!	!	!	!	!	!	!	!	!	!	!	!LO:TX:t=P:problem:diminuendolike accent	!	!	!
1r	1r	.	1ryy	.	.	.	1ryy	.	.	.	1ryy	.	.	.	1ryy	.	.	.	4.e^>\	-nij-	-ma-	.
.	.	.	.	.	.	.	.	.	.	.	.	.	.	.	.	.	.	.	8d\	-cie	-to in	.
.	.	.	.	.	.	.	.	.	.	.	.	.	.	.	.	.	.	.	4A\	tyl-	si-	.
.	.	.	.	.	.	.	.	.	.	.	.	.	.	.	.	.	.	.	4B\	-ko	-mil	.
=12	=12	=12	=12	=12	=12	=12	=12	=12	=12	=12	=12	=12	=12	=12	=12	=12	=12	=12	=12	=12	=12	=12
1r	1r	.	1ryy	.	.	.	1ryy	.	.	.	1ryy	.	.	.	1ryy	.	.	.	2cn\	so-	qui-	.
!	!	!	!	!	!	!	!	!	!	!	!	!	!	!	!	!	!	!	!LO:TX:a:i:t=lento assai.:note=podkreślone na niebiesko	!	!	!
.	.	.	.	.	.	.	.	.	.	.	.	.	.	.	.	.	.	.	8c\	-bie!	-sa,	.
.	.	.	.	.	.	.	.	.	.	.	.	.	.	.	.	.	.	.	8r	.	.	.
.	.	.	.	.	.	.	.	.	.	.	.	.	.	.	.	.	.	.	8c\	Ja	sono	.
.	.	.	.	.	.	.	.	.	.	.	.	.	.	.	.	.	.	.	8c\	nie-	il	.
!!LO:LB:g=original
=13	=13	=13	=13	=13	=13	=13	=13	=13	=13	=13	=13	=13	=13	=13	=13	=13	=13	=13	=13	=13	=13	=13
!	!	!LO:DY:rj	!	!	!	!	!	!	!	!	!	!	!	!	!	!	!	!	!	!	!	!
2CCn\	2Cn<^^>/ 2E-X< 2G< 2cn	mf	1ryy	.	.	.	1ryy	.	.	.	1ryy	.	.	.	1ryy	.	.	.	4.cn\	-bosz-	si-	.
.	.	.	.	.	.	.	.	.	.	.	.	.	.	.	.	.	.	.	8c\	-czyk	-sce	.
!	!LO:TX:b:t=Lento:note=zapisane ołówkiem:rj	!	!	!	!	!	!	!	!	!	!	!	!	!	!	!	!	!	!	!	!	!
2FFFn\ 2CC\ 2FFn\	2C<^^>/ 2Fn</ 2A-X</ 2c/	.	.	.	.	.	.	.	.	.	.	.	.	.	.	.	.	.	4.c\	pan	vo-	.
.	.	.	.	.	.	.	.	.	.	.	.	.	.	.	.	.	.	.	8c\	wasz!	-stro io	.
=14	=14	=14	=14	=14	=14	=14	=14	=14	=14	=14	=14	=14	=14	=14	=14	=14	=14	=14	=14	=14	=14	=14
4CCn\	4Cn</ 4E-X< 4G< 4cn	.	1ryy	.	.	.	1ryy	.	.	.	1ryy	.	.	.	1ryy	.	.	.	2.e-X^>\	dzie-	stes-	.
!	!LO:TX:a:i:t=tempo 1mo	!	!	!	!	!	!	!	!	!	!	!	!	!	!	!	!	!	!	!	!	!
4r	4r	.	.	.	.	.	.	.	.	.	.	.	.	.	.	.	.	.	.	.	.	.
2r	2r	.	.	.	.	.	.	.	.	.	.	.	.	.	.	.	.	.	.	.	.	.
.	.	.	.	.	.	.	.	.	.	.	.	.	.	.	.	.	.	.	8d\	-ci!	-so!	.
.	.	.	.	.	.	.	.	.	.	.	.	.	.	.	.	.	.	.	8cn\	nie	over-	.
=15	=15	=15	=15	=15	=15	=15	=15	=15	=15	=15	=15	=15	=15	=15	=15	=15	=15	=15	=15	=15	=15	=15
2r	2r	.	1ryy	.	.	.	1ryy	.	.	.	1ryy	.	.	.	1ryy	.	.	.	4..e-X\	zna-	-da-	.
.	.	.	.	.	.	.	.	.	.	.	.	.	.	.	.	.	.	.	16d\	-cież	-ter-	.
4r	4r	.	.	.	.	.	.	.	.	.	.	.	.	.	.	.	.	.	4cn\	mnie?	-ni!	.
!LO:SIC:v:s=4cn 4G 4Cn\	!	!LO:DY:rj	!	!	!	!	!	!	!	!	!	!	!	!	!	!	!	!	!LO:TX:a:B:t=piu	!	!	!
4C#^^>\ 4G\ 4c#\	4e-X^^>/ 4g/ 4ee-X/	f	.	.	.	.	.	.	.	.	.	.	.	.	.	.	.	.	4r	.	.	.
=16	=16	=16	=16	=16	=16	=16	=16	=16	=16	=16	=16	=16	=16	=16	=16	=16	=16	=16	=16	=16	=16	=16
!	!	!	!	!	!	!	!	!	!	!	!	!	!	!	!	!	!	!	!	!	!	!LO:DY:a:rj
2C#X^^>\ 2En\ 2A\ 2c#X\	2en^^>/ 2g/ 2b/ 2een/	.	1ryy	.	.	.	1ryy	.	.	.	1ryy	.	.	.	1ryy	.	.	.	2.e^>\	dzie-	fi-	f
!LO:TX:b:t=V&colon; S&colon;	!	!	!	!	!	!	!	!	!	!	!	!	!	!	!	!	!	!	!	!	!	!
2r	2r	.	.	.	.	.	.	.	.	.	.	.	.	.	.	.	.	.	.	.	.	.
.	.	.	.	.	.	.	.	.	.	.	.	.	.	.	.	.	.	.	8.d\	-ci!	-gli!	.
!	!	!	!	!	!	!	!	!	!	!	!	!	!	!	!	!	!	!	!LO:TX:b:t=V&colon; S&colon;	!	!	!
.	.	.	.	.	.	.	.	.	.	.	.	.	.	.	.	.	.	.	16c#\	nie	quan-	.
!!LO:PB:g=original
=17	=17	=17	=17	=17	=17	=17	=17	=17	=17	=17	=17	=17	=17	=17	=17	=17	=17	=17	=17	=17	=17	=17
2r;>	2r;>	.	1ryy	.	.	.	1ryy	.	.	.	1ryy	.	.	.	1ryy	.	.	.	4..e\	zna-	-da-	.
.	.	.	.	.	.	.	.	.	.	.	.	.	.	.	.	.	.	.	16d\	-cież	-te-	.
4r	4r	.	.	.	.	.	.	.	.	.	.	.	.	.	.	.	.	.	4c#\	mnie?	-mi!	.
4r	(<8A</L	<	.	.	.	.	.	.	.	.	.	.	.	.	.	.	.	.	4r	.	.	.
.	8B-X</J)	[[	.	.	.	.	.	.	.	.	.	.	.	.	.	.	.	.	.	.	.	.
=18	=18	=18	=18	=18	=18	=18	=18	=18	=18	=18	=18	=18	=18	=18	=18	=18	=18	=18	=18	=18	=18	=18
*^	*^	*	*	*	*	*	*	*	*	*	*	*	*	*	*	*	*	*	*	*	*	*
*	*	*	*	*^	*	*	*	*	*	*	*	*	*	*	*	*	*	*	*	*	*	*	*	*
!	!	!LO:TX:a:t=All°:color=blue	!	!	!	!	!	!	!	!	!	!	!	!	!	!	!	!	!	!	!	!	!	!	!
(<4..B-X/	1C#X^<	(2.g/	1e	.	sff >	1ryy	.	.	.	1ryy	.	.	.	1ryy	.	.	.	1ryy	.	.	.	1r	.	.	.
!	!	!LO:TX:B:a:t=moderato.	!	!LO:HP:a	!	!	!	!	!	!	!	!	!	!	!	!	!	!	!	!	!	!	!	!	!
16A/	.	.	.	<	.	.	.	.	.	.	.	.	.	.	.	.	.	.	.	.	.	.	.	.	.
2G/)	.	.	.	.	.	.	.	.	.	.	.	.	.	.	.	.	.	.	.	.	.	.	.	.	.
.	.	8a/L	.	.	]	.	.	.	.	.	.	.	.	.	.	.	.	.	.	.	.	.	.	.	.
.	.	8b-X/J	.	[[	.	.	.	.	.	.	.	.	.	.	.	.	.	.	.	.	.	.	.	.	.
*	*	*	*	*v	*v	*	*	*	*	*	*	*	*	*	*	*	*	*	*	*	*	*	*	*	*
=19	=19	=19	=19	=19	=19	=19	=19	=19	=19	=19	=19	=19	=19	=19	=19	=19	=19	=19	=19	=19	=19	=19	=19	=19
!	!	!	!	!LO:HP:a	!	!	!	!	!	!	!	!	!	!	!	!	!	!	!	!	!	!	!	!
!	!	!	!	!LO:DY:a	!	!	!	!	!	!	!	!	!	!	!	!	!	!	!	!	!	!	!	!
4..G#X/	(>2.D^<\	4..b/	1e#X	[ sff >	1ryy	.	.	.	1ryy	.	.	.	1ryy	.	.	.	1ryy	.	.	.	1r	.	.	.
16A/	.	16a/	.	.	.	.	.	.	.	.	.	.	.	.	.	.	.	.	.	.	.	.	.	.
!	!	!LO:T:color=blue	!	!	!	!	!	!	!	!	!	!	!	!	!	!	!	!	!	!	!	!	!	!
4B/	.	[>2g#X/)	.	]	.	.	.	.	.	.	.	.	.	.	.	.	.	.	.	.	.	.	.	.
8c#/L	8C#\L	.	.	.	.	.	.	.	.	.	.	.	.	.	.	.	.	.	.	.	.	.	.	.
8d/J	8BB\J	.	.	.	.	.	.	.	.	.	.	.	.	.	.	.	.	.	.	.	.	.	.	.
*v	*v	*	*	*	*	*	*	*	*	*	*	*	*	*	*	*	*	*	*	*	*	*	*	*
=20	=20	=20	=20	=20	=20	=20	=20	=20	=20	=20	=20	=20	=20	=20	=20	=20	=20	=20	=20	=20	=20	=20	=20
(>4AA\)	(>4..cc#/	4c#\ 4g#]\	.	1ryy	.	.	.	1ryy	.	.	.	1ryy	.	.	.	1ryy	.	.	.	2r	.	.	.
4BB\	.	4d\ 4f#\	.	.	.	.	.	.	.	.	.	.	.	.	.	.	.	.	.	.	.	.	.
.	16b/	.	.	.	.	.	.	.	.	.	.	.	.	.	.	.	.	.	.	.	.	.	.
[>4C#\	4a/	4..c#\ 4..f#	.	.	.	.	.	.	.	.	.	.	.	.	.	.	.	.	.	4r	.	.	.
4CC#/) 4C#]	4e#X/ 4g#X/	.	.	.	.	.	.	.	.	.	.	.	.	.	.	.	.	.	.	8C#/	Ja	Sono	.
.	.	.	.	.	.	.	.	.	.	.	.	.	.	.	.	.	.	.	.	8C#/	nie-	il	.
.	.	16B\)	.	.	.	.	.	.	.	.	.	.	.	.	.	.	.	.	.	.	.	.	.
*	*v	*v	*	*	*	*	*	*	*	*	*	*	*	*	*	*	*	*	*	*	*	*	*
!!LO:LB:g=original
=21	=21	=21	=21	=21	=21	=21	=21	=21	=21	=21	=21	=21	=21	=21	=21	=21	=21	=21	=21	=21	=21	=21
1FF#^>	8A/ 8f#	.	1ryy	.	.	.	1ryy	.	.	.	1ryy	.	.	.	1ryy	.	.	.	(>4..A^>\	-bosz-	si-	.
*	*tremolo	*	*	*	*	*	*	*	*	*	*	*	*	*	*	*	*	*	*	*	*	*
!	!LO:TX:b:t=...	!LO:DY:rj	!	!	!	!	!	!	!	!	!	!	!	!	!	!	!	!	!	!	!	!
.	8c#'</L 8f#/ 8a/	p	.	.	.	.	.	.	.	.	.	.	.	.	.	.	.	.	.	.	.	.
.	8c#'</ 8f#/ 8a/	.	.	.	.	.	.	.	.	.	.	.	.	.	.	.	.	.	.	.	.	.
.	8c#'</J 8f#/ 8a/	.	.	.	.	.	.	.	.	.	.	.	.	.	.	.	.	.	.	.	.	.
.	.	.	.	.	.	.	.	.	.	.	.	.	.	.	.	.	.	.	16G#X\	-czyk	-re	.
.	8c#/L 8f#/ 8a/	.	.	.	.	.	.	.	.	.	.	.	.	.	.	.	.	.	4F#\	pan	va-	.
.	8c#/ 8f#/ 8a/	.	.	.	.	.	.	.	.	.	.	.	.	.	.	.	.	.	.	.	.	.
.	8c#/ 8f#/ 8a/	.	.	.	.	.	.	.	.	.	.	.	.	.	.	.	.	.	8C#\)	wasz	-<...>,	.
.	8c#/J/ 8f#/ 8a/	.	.	.	.	.	.	.	.	.	.	.	.	.	.	.	.	.	8r	.	.	.
*	*Xtremolo	*	*	*	*	*	*	*	*	*	*	*	*	*	*	*	*	*	*	*	*	*
=22	=22	=22	=22	=22	=22	=22	=22	=22	=22	=22	=22	=22	=22	=22	=22	=22	=22	=22	=22	=22	=22	=22
*^	*	*	*	*	*	*	*	*	*	*	*	*	*	*	*	*	*	*	*	*	*	*
4r	1FF#^>	8r	.	1ryy	.	.	.	1ryy	.	.	.	1ryy	.	.	.	1ryy	.	.	.	2.A\	dzie-	so-	.
*	*	*tremolo	*	*	*	*	*	*	*	*	*	*	*	*	*	*	*	*	*	*	*	*	*
!	!	!LO:TX:b:t=...	!	!	!	!	!	!	!	!	!	!	!	!	!	!	!	!	!	!	!	!	!
.	.	8A'</L 8f#/ 8a/	.	.	.	.	.	.	.	.	.	.	.	.	.	.	.	.	.	.	.	.	.
(>8.BB#X/L	.	8A'</ 8f#/ 8a/	.	.	.	.	.	.	.	.	.	.	.	.	.	.	.	.	.	.	.	.	.
.	.	8A'</J 8f#/ 8a/	.	.	.	.	.	.	.	.	.	.	.	.	.	.	.	.	.	.	.	.	.
16C#/Jk	.	.	.	.	.	.	.	.	.	.	.	.	.	.	.	.	.	.	.	.	.	.	.
[>2D^</)	.	8A/L 8f#/ 8a/	.	.	.	.	.	.	.	.	.	.	.	.	.	.	.	.	.	.	.	.	.
.	.	8A/ 8f#/ 8a/	.	.	.	.	.	.	.	.	.	.	.	.	.	.	.	.	.	.	.	.	.
.	.	8A/ 8f#/ 8a/	.	.	.	.	.	.	.	.	.	.	.	.	.	.	.	.	.	8G#X\	-ci,	-no	.
.	.	8A/J 8f#/ 8a/	.	.	.	.	.	.	.	.	.	.	.	.	.	.	.	.	.	8F#\	po-	io	.
*	*	*Xtremolo	*	*	*	*	*	*	*	*	*	*	*	*	*	*	*	*	*	*	*	*	*
*v	*v	*	*	*	*	*	*	*	*	*	*	*	*	*	*	*	*	*	*	*	*	*	*
=23	=23	=23	=23	=23	=23	=23	=23	=23	=23	=23	=23	=23	=23	=23	=23	=23	=23	=23	=23	=23	=23	=23
*	*^	*	*	*	*	*	*	*	*	*	*	*	*	*	*	*	*	*	*^	*	*	*
1DD 1D]	8r	4rc	.	1ryy	.	.	.	1ryy	.	.	.	1ryy	.	.	.	1ryy	.	.	.	2.A\	2.ryy	-znaj-	stes-	.
.	8f#/L 8a/	.	.	.	.	.	.	.	.	.	.	.	.	.	.	.	.	.	.	.	.	.	.	.
.	8f#/ 8a/	(<8.A\L	.	.	.	.	.	.	.	.	.	.	.	.	.	.	.	.	.	.	.	.	.	.
.	8f#/J 8a/	.	.	.	.	.	.	.	.	.	.	.	.	.	.	.	.	.	.	.	.	.	.	.
.	.	16B\Jk	.	.	.	.	.	.	.	.	.	.	.	.	.	.	.	.	.	.	.	.	.	.
*	*tremolo	*	*	*	*	*	*	*	*	*	*	*	*	*	*	*	*	*	*	*	*	*	*	*
.	8f#/L 8a/	2B#X^<\)	.	.	.	.	.	.	.	.	.	.	.	.	.	.	.	.	.	.	.	.	.	.
.	8f#/ 8a/	.	.	.	.	.	.	.	.	.	.	.	.	.	.	.	.	.	.	.	.	.	.	.
.	8f#/ 8a/	.	.	.	.	.	.	.	.	.	.	.	.	.	.	.	.	.	.	8G#\	8G#/L@	-cie	-so	.
.	8f#/J 8a/	.	.	.	.	.	.	.	.	.	.	.	.	.	.	.	.	.	.	8F#\	8BJ@	mnie!	.	.
*	*	*	*	*	*	*	*	*	*	*	*	*	*	*	*	*	*	*	*	*v	*v	*	*	*
*	*v	*v	*	*	*	*	*	*	*	*	*	*	*	*	*	*	*	*	*	*	*	*	*
=24	=24	=24	=24	=24	=24	=24	=24	=24	=24	=24	=24	=24	=24	=24	=24	=24	=24	=24	=24	=24	=24	=24
!	!LO:TX:b:t=..	!	!	!	!	!	!	!	!	!	!	!	!	!	!	!	!	!	!	!	!	!
(>4AA\	8c#'</L 8e/ 8a/	.	1ryy	.	.	.	1ryy	.	.	.	1ryy	.	.	.	1ryy	.	.	.	8.E\	wszak	il	.
.	8c#'</J 8e/ 8a/	.	.	.	.	.	.	.	.	.	.	.	.	.	.	.	.	.	.	.	.	.
.	.	.	.	.	.	.	.	.	.	.	.	.	.	.	.	.	.	.	16E\	to	pa-	.
!	!LO:TX:b:t=..	!	!	!	!	!	!	!	!	!	!	!	!	!	!	!	!	!	!	!	!	!
4BB\	8B'</L 8d/ 8g#X/	.	.	.	.	.	.	.	.	.	.	.	.	.	.	.	.	.	8.D\	by-	-dro-	.
.	8B'</J 8d/ 8g#/	.	.	.	.	.	.	.	.	.	.	.	.	.	.	.	.	.	.	.	.	.
.	.	.	.	.	.	.	.	.	.	.	.	.	.	.	.	.	.	.	16C#\	-ła	-ne	.
8C#\)	8A</L 8c#</ 8f#/	.	.	.	.	.	.	.	.	.	.	.	.	.	.	.	.	.	4C#\	mo-	del	.
8r	8A/J 8c#/ 8f#/	.	.	.	.	.	.	.	.	.	.	.	.	.	.	.	.	.	.	.	.	.
4C#\	8G#y</L 8B</ 8c#</ 8e#X/	.	.	.	.	.	.	.	.	.	.	.	.	.	.	.	.	.	4C#\	-ja	vil-	.
.	8G#/J 8B/ 8c#/ 8e#/	.	.	.	.	.	.	.	.	.	.	.	.	.	.	.	.	.	.	.	.	.
*	*Xtremolo	*	*	*	*	*	*	*	*	*	*	*	*	*	*	*	*	*	*	*	*	*
!!LO:LB:g=original
=25	=25	=25	=25	=25	=25	=25	=25	=25	=25	=25	=25	=25	=25	=25	=25	=25	=25	=25	=25	=25	=25	=25
8F#\	8A/ 8f#/	.	1ryy	.	.	.	1ryy	.	.	.	1ryy	.	.	.	1ryy	.	.	.	4C#\	wio-	-lag-	.
8r	4A/ 4c#/ 4f#/	.	.	.	.	.	.	.	.	.	.	.	.	.	.	.	.	.	.	.	.	.
8C#\	.	.	.	.	.	.	.	.	.	.	.	.	.	.	.	.	.	.	4F#\	-ska.	-gio.	.
8r	4A/ 4c#/ 4f#/	.	.	.	.	.	.	.	.	.	.	.	.	.	.	.	.	.	.	.	.	.
8AA/	.	.	.	.	.	.	.	.	.	.	.	.	.	.	.	.	.	.	4r	.	.	.
8r	4A/ 4c#/ 4f#/	.	.	.	.	.	.	.	.	.	.	.	.	.	.	.	.	.	.	.	.	.
8FF#/	.	.	.	.	.	.	.	.	.	.	.	.	.	.	.	.	.	.	8E#X\	Dziś	L'an-	.
8r	8A/ 8c#/ 8f#/	.	.	.	.	.	.	.	.	.	.	.	.	.	.	.	.	.	8F#\	rok	-no	.
=26	=26	=26	=26	=26	=26	=26	=26	=26	=26	=26	=26	=26	=26	=26	=26	=26	=26	=26	=26	=26	=26	=26
(>4BB\	8G#X/ 8d/ 8f#/	.	1ryy	.	.	.	1ryy	.	.	.	1ryy	.	.	.	1ryy	.	.	.	4.G#X\	le-	ten-	.
.	4G#/ 4d/ 4f#/	.	.	.	.	.	.	.	.	.	.	.	.	.	.	.	.	.	.	.	.	.
4D\	.	.	.	.	.	.	.	.	.	.	.	.	.	.	.	.	.	.	.	.	.	.
.	4G#/ 4d/ 4f#/	.	.	.	.	.	.	.	.	.	.	.	.	.	.	.	.	.	8F#\	-dwo	-zo	.
8C#\)	.	.	.	.	.	.	.	.	.	.	.	.	.	.	.	.	.	.	4E#X\	mi-	com-	.
!	!LO:ACC:color=blue	!	!	!	!	!	!	!	!	!	!	!	!	!	!	!	!	!	!	!	!	!
8r	4G#/ 4c#/ 4e#X/	.	.	.	.	.	.	.	.	.	.	.	.	.	.	.	.	.	.	.	.	.
(<4CC#/ (>4C#	.	.	.	.	.	.	.	.	.	.	.	.	.	.	.	.	.	.	8F#\L	-ja	-pie	.
.	8B/ 8e#/ 8g#X/	.	.	.	.	.	.	.	.	.	.	.	.	.	.	.	.	.	8G#\J	.	ap-	.
=27	=27	=27	=27	=27	=27	=27	=27	=27	=27	=27	=27	=27	=27	=27	=27	=27	=27	=27	=27	=27	=27	=27
8FF#/))	8A/ 8f#/ 8a/	.	1ryy	.	.	.	1ryy	.	.	.	1ryy	.	.	.	1ryy	.	.	.	2A\	trze-	-pe-	.
8r	4A/ 4f#/ 4a/	.	.	.	.	.	.	.	.	.	.	.	.	.	.	.	.	.	.	.	.	.
8AA/	.	.	.	.	.	.	.	.	.	.	.	.	.	.	.	.	.	.	.	.	.	.
8r	4A/ 4f#/ 4a/	.	.	.	.	.	.	.	.	.	.	.	.	.	.	.	.	.	.	.	.	.
8C#/	.	.	.	.	.	.	.	.	.	.	.	.	.	.	.	.	.	.	8A\	-ci,	-na	.
8r	4A/ 4f#/ 4a/	.	.	.	.	.	.	.	.	.	.	.	.	.	.	.	.	.	8r	.	.	.
8F#\	.	.	.	.	.	.	.	.	.	.	.	.	.	.	.	.	.	.	8A\	jak	<......>	.
8r	8A/ 8f#/ 8a/	.	.	.	.	.	.	.	.	.	.	.	.	.	.	.	.	.	8A\	mnie	<.. .>	.
!!LO:LB:g=original
=28	=28	=28	=28	=28	=28	=28	=28	=28	=28	=28	=28	=28	=28	=28	=28	=28	=28	=28	=28	=28	=28	=28
(>4D\	8a/ 8b/	.	1ryy	.	.	.	1ryy	.	.	.	1ryy	.	.	.	1ryy	.	.	.	4.B\	zło-	me	.
.	4B/ 4a/ 4b/	.	.	.	.	.	.	.	.	.	.	.	.	.	.	.	.	.	.	.	.	.
4Fn\	.	.	.	.	.	.	.	.	.	.	.	.	.	.	.	.	.	.	.	.	.	.
.	4d/ 4a/ 4b/	.	.	.	.	.	.	.	.	.	.	.	.	.	.	.	.	.	8A\	-ży-	l'a-	.
8E\)	.	.	.	.	.	.	.	.	.	.	.	.	.	.	.	.	.	.	(>4G#X\	-liś-	-vel	.
!	!LO:ACC:color=blue	!	!	!	!	!	!	!	!	!	!	!	!	!	!	!	!	!	!	!	!	!
8r	4e/ 4g#X/ 4b/	.	.	.	.	.	.	.	.	.	.	.	.	.	.	.	.	.	.	.	.	.
(<4EE/ (>4E	.	.	.	.	.	.	.	.	.	.	.	.	.	.	.	.	.	.	8A\)	.	.	.
.	8e/ 8g#/ 8dd/	.	.	.	.	.	.	.	.	.	.	.	.	.	.	.	.	.	8B\	-cie	si	.
=29	=29	=29	=29	=29	=29	=29	=29	=29	=29	=29	=29	=29	=29	=29	=29	=29	=29	=29	=29	=29	=29	=29
!	!	!	!	!	!	!	!	!	!	!	!	!	!	!	!	!	!	!	!LO:TX:t=P:problem:łuk dopisany ołówkiem	!	!	!
8AA/))	8e^</ 8g/ 8dd/	.	1ryy	.	.	.	1ryy	.	.	.	1ryy	.	.	.	1ryy	.	.	.	(>2d\	w gro-	okin-	.
8r	4e/ 4g/	.	.	.	.	.	.	.	.	.	.	.	.	.	.	.	.	.	.	.	.	.
8E\	.	.	.	.	.	.	.	.	.	.	.	.	.	.	.	.	.	.	.	.	.	.
8r	4e/ 4g/	.	.	.	.	.	.	.	.	.	.	.	.	.	.	.	.	.	.	.	.	.
8A\	.	.	.	.	.	.	.	.	.	.	.	.	.	.	.	.	.	.	8c#\)	-bie	-se.	.
8r	4e/ 4g/ 4cc#/	.	.	.	.	.	.	.	.	.	.	.	.	.	.	.	.	.	8r	.	.	.
4AAA/ (<4AA	.	.	.	.	.	.	.	.	.	.	.	.	.	.	.	.	.	.	8.c#\	Ach	<....>	.
.	8c#/ 8e/ 8g/	.	.	.	.	.	.	.	.	.	.	.	.	.	.	.	.	.	.	.	.	.
.	.	.	.	.	.	.	.	.	.	.	.	.	.	.	.	.	.	.	16c#\	zbyt	qual	.
=30	=30	=30	=30	=30	=30	=30	=30	=30	=30	=30	=30	=30	=30	=30	=30	=30	=30	=30	=30	=30	=30	=30
*tremolo	*	*	*	*	*	*	*	*	*	*	*	*	*	*	*	*	*	*	*	*	*	*
32DD/LLL)	(>4d/ 4f#/	p	1ryy	.	.	.	1ryy	.	.	.	1ryy	.	.	.	1ryy	.	.	.	4.d\	cięż-	sof-	.
32AA/	.	.	.	.	.	.	.	.	.	.	.	.	.	.	.	.	.	.	.	.	.	.
32DD/	.	.	.	.	.	.	.	.	.	.	.	.	.	.	.	.	.	.	.	.	.	.
32AA/	.	.	.	.	.	.	.	.	.	.	.	.	.	.	.	.	.	.	.	.	.	.
32DD/	.	.	.	.	.	.	.	.	.	.	.	.	.	.	.	.	.	.	.	.	.	.
32AA/	.	.	.	.	.	.	.	.	.	.	.	.	.	.	.	.	.	.	.	.	.	.
32DD/	.	.	.	.	.	.	.	.	.	.	.	.	.	.	.	.	.	.	.	.	.	.
32AA/	.	.	.	.	.	.	.	.	.	.	.	.	.	.	.	.	.	.	.	.	.	.
32DD/	4e/ 4g/	.	.	.	.	.	.	.	.	.	.	.	.	.	.	.	.	.	.	.	.	.
32AA/	.	.	.	.	.	.	.	.	.	.	.	.	.	.	.	.	.	.	.	.	.	.
32DD/	.	.	.	.	.	.	.	.	.	.	.	.	.	.	.	.	.	.	.	.	.	.
32AA/	.	.	.	.	.	.	.	.	.	.	.	.	.	.	.	.	.	.	.	.	.	.
32DD/	.	.	.	.	.	.	.	.	.	.	.	.	.	.	.	.	.	.	8c#\	-ka	-fro	.
32AA/	.	.	.	.	.	.	.	.	.	.	.	.	.	.	.	.	.	.	.	.	.	.
32DD/	.	.	.	.	.	.	.	.	.	.	.	.	.	.	.	.	.	.	.	.	.	.
32AA/JJJ	.	.	.	.	.	.	.	.	.	.	.	.	.	.	.	.	.	.	.	.	.	.
32DD/LLL	4c#/ 4e/	.	.	.	.	.	.	.	.	.	.	.	.	.	.	.	.	.	4A\	ka-	ovcen-	.
32AA/	.	.	.	.	.	.	.	.	.	.	.	.	.	.	.	.	.	.	.	.	.	.
32DD/	.	.	.	.	.	.	.	.	.	.	.	.	.	.	.	.	.	.	.	.	.	.
32AA/	.	.	.	.	.	.	.	.	.	.	.	.	.	.	.	.	.	.	.	.	.	.
32DD/	.	.	.	.	.	.	.	.	.	.	.	.	.	.	.	.	.	.	.	.	.	.
32AA/	.	.	.	.	.	.	.	.	.	.	.	.	.	.	.	.	.	.	.	.	.	.
32DD/	.	.	.	.	.	.	.	.	.	.	.	.	.	.	.	.	.	.	.	.	.	.
32AA/	.	.	.	.	.	.	.	.	.	.	.	.	.	.	.	.	.	.	.	.	.	.
32DD/	4d/) 4f#/	.	.	.	.	.	.	.	.	.	.	.	.	.	.	.	.	.	4F#\	-ra	-da	.
32AA/	.	.	.	.	.	.	.	.	.	.	.	.	.	.	.	.	.	.	.	.	.	.
32DD/	.	.	.	.	.	.	.	.	.	.	.	.	.	.	.	.	.	.	.	.	.	.
32AA/	.	.	.	.	.	.	.	.	.	.	.	.	.	.	.	.	.	.	.	.	.	.
32DD/	.	.	.	.	.	.	.	.	.	.	.	.	.	.	.	.	.	.	.	.	.	.
32AA/	.	.	.	.	.	.	.	.	.	.	.	.	.	.	.	.	.	.	.	.	.	.
32DD/	.	.	.	.	.	.	.	.	.	.	.	.	.	.	.	.	.	.	.	.	.	.
32AA/JJJ	.	.	.	.	.	.	.	.	.	.	.	.	.	.	.	.	.	.	.	.	.	.
!!LO:PB:g=original
=31	=31	=31	=31	=31	=31	=31	=31	=31	=31	=31	=31	=31	=31	=31	=31	=31	=31	=31	=31	=31	=31	=31
*2\right	*	*	*	*	*	*	*	*	*	*	*	*	*	*	*	*	*	*	*	*	*	*
32DD\LLL	(>4B/ 4g/	.	1ryy	.	.	.	1ryy	.	.	.	1ryy	.	.	.	1ryy	.	.	.	2D\	bo-	pe-	.
32D\	.	.	.	.	.	.	.	.	.	.	.	.	.	.	.	.	.	.	.	.	.	.
32DD\	.	.	.	.	.	.	.	.	.	.	.	.	.	.	.	.	.	.	.	.	.	.
32D\	.	.	.	.	.	.	.	.	.	.	.	.	.	.	.	.	.	.	.	.	.	.
32DD\	.	.	.	.	.	.	.	.	.	.	.	.	.	.	.	.	.	.	.	.	.	.
32D\	.	.	.	.	.	.	.	.	.	.	.	.	.	.	.	.	.	.	.	.	.	.
32DD\	.	.	.	.	.	.	.	.	.	.	.	.	.	.	.	.	.	.	.	.	.	.
32D\	.	.	.	.	.	.	.	.	.	.	.	.	.	.	.	.	.	.	.	.	.	.
32DD\	4A/ 4fn/	.	.	.	.	.	.	.	.	.	.	.	.	.	.	.	.	.	.	.	.	.
32D\	.	.	.	.	.	.	.	.	.	.	.	.	.	.	.	.	.	.	.	.	.	.
32DD\	.	.	.	.	.	.	.	.	.	.	.	.	.	.	.	.	.	.	.	.	.	.
32D\	.	.	.	.	.	.	.	.	.	.	.	.	.	.	.	.	.	.	.	.	.	.
32DD\	.	.	.	.	.	.	.	.	.	.	.	.	.	.	.	.	.	.	.	.	.	.
32D\	.	.	.	.	.	.	.	.	.	.	.	.	.	.	.	.	.	.	.	.	.	.
32DD\	.	.	.	.	.	.	.	.	.	.	.	.	.	.	.	.	.	.	.	.	.	.
32D\JJJ	.	.	.	.	.	.	.	.	.	.	.	.	.	.	.	.	.	.	.	.	.	.
32DD\LLL	4G#X</ 4B</ 4e/	.	.	.	.	.	.	.	.	.	.	.	.	.	.	.	.	.	8D\	-ska!	-na!	.
32D\	.	.	.	.	.	.	.	.	.	.	.	.	.	.	.	.	.	.	.	.	.	.
32DD\	.	.	.	.	.	.	.	.	.	.	.	.	.	.	.	.	.	.	.	.	.	.
32D\	.	.	.	.	.	.	.	.	.	.	.	.	.	.	.	.	.	.	.	.	.	.
32DD\	.	.	.	.	.	.	.	.	.	.	.	.	.	.	.	.	.	.	8r	.	.	.
32D\	.	.	.	.	.	.	.	.	.	.	.	.	.	.	.	.	.	.	.	.	.	.
32DD\	.	.	.	.	.	.	.	.	.	.	.	.	.	.	.	.	.	.	.	.	.	.
32D\	.	.	.	.	.	.	.	.	.	.	.	.	.	.	.	.	.	.	.	.	.	.
32DD\	4Gn</ 4B-X</ 4d/	.	.	.	.	.	.	.	.	.	.	.	.	.	.	.	.	.	8D\	je-	Deg-	.
32D\	.	.	.	.	.	.	.	.	.	.	.	.	.	.	.	.	.	.	.	.	.	.
32DD\	.	.	.	.	.	.	.	.	.	.	.	.	.	.	.	.	.	.	.	.	.	.
32D\	.	.	.	.	.	.	.	.	.	.	.	.	.	.	.	.	.	.	.	.	.	.
32DD\	.	.	.	.	.	.	.	.	.	.	.	.	.	.	.	.	.	.	8D\	-stem	-li	.
32D\	.	.	.	.	.	.	.	.	.	.	.	.	.	.	.	.	.	.	.	.	.	.
32DD\	.	.	.	.	.	.	.	.	.	.	.	.	.	.	.	.	.	.	.	.	.	.
32D\JJJ	.	.	.	.	.	.	.	.	.	.	.	.	.	.	.	.	.	.	.	.	.	.
=32	=32	=32	=32	=32	=32	=32	=32	=32	=32	=32	=32	=32	=32	=32	=32	=32	=32	=32	=32	=32	=32	=32
32DD\LLL	4F#</ 4A</	.	1ryy	.	.	.	1ryy	.	.	.	1ryy	.	.	.	1ryy	.	.	.	4.d\	w złe-	spi-	.
32AA\	.	.	.	.	.	.	.	.	.	.	.	.	.	.	.	.	.	.	.	.	.	.
32DD\	.	.	.	.	.	.	.	.	.	.	.	.	.	.	.	.	.	.	.	.	.	.
32AA\	.	.	.	.	.	.	.	.	.	.	.	.	.	.	.	.	.	.	.	.	.	.
32DD\	.	.	.	.	.	.	.	.	.	.	.	.	.	.	.	.	.	.	.	.	.	.
32AA\	.	.	.	.	.	.	.	.	.	.	.	.	.	.	.	.	.	.	.	.	.	.
32DD\	.	.	.	.	.	.	.	.	.	.	.	.	.	.	.	.	.	.	.	.	.	.
32AA\	.	.	.	.	.	.	.	.	.	.	.	.	.	.	.	.	.	.	.	.	.	.
32DD\	4G</ 4B</	.	.	.	.	.	.	.	.	.	.	.	.	.	.	.	.	.	.	.	.	.
32AA\	.	.	.	.	.	.	.	.	.	.	.	.	.	.	.	.	.	.	.	.	.	.
32DD\	.	.	.	.	.	.	.	.	.	.	.	.	.	.	.	.	.	.	.	.	.	.
32AA\	.	.	.	.	.	.	.	.	.	.	.	.	.	.	.	.	.	.	.	.	.	.
32DD\	.	.	.	.	.	.	.	.	.	.	.	.	.	.	.	.	.	.	8c#\	-go	-ri-	.
32AA\	.	.	.	.	.	.	.	.	.	.	.	.	.	.	.	.	.	.	.	.	.	.
32DD\	.	.	.	.	.	.	.	.	.	.	.	.	.	.	.	.	.	.	.	.	.	.
32AA\JJJ	.	.	.	.	.	.	.	.	.	.	.	.	.	.	.	.	.	.	.	.	.	.
32DD\LLL	4E</ 4G</	.	.	.	.	.	.	.	.	.	.	.	.	.	.	.	.	.	4A\	du-	-ti	.
32AA\	.	.	.	.	.	.	.	.	.	.	.	.	.	.	.	.	.	.	.	.	.	.
32DD\	.	.	.	.	.	.	.	.	.	.	.	.	.	.	.	.	.	.	.	.	.	.
32AA\	.	.	.	.	.	.	.	.	.	.	.	.	.	.	.	.	.	.	.	.	.	.
32DD\	.	.	.	.	.	.	.	.	.	.	.	.	.	.	.	.	.	.	.	.	.	.
32AA\	.	.	.	.	.	.	.	.	.	.	.	.	.	.	.	.	.	.	.	.	.	.
32DD\	.	.	.	.	.	.	.	.	.	.	.	.	.	.	.	.	.	.	.	.	.	.
32AA\	.	.	.	.	.	.	.	.	.	.	.	.	.	.	.	.	.	.	.	.	.	.
32DD\	4F#</ 4A</	.	.	.	.	.	.	.	.	.	.	.	.	.	.	.	.	.	4F#\	-cha	del	.
32AA\	.	.	.	.	.	.	.	.	.	.	.	.	.	.	.	.	.	.	.	.	.	.
32DD\	.	.	.	.	.	.	.	.	.	.	.	.	.	.	.	.	.	.	.	.	.	.
32AA\	.	.	.	.	.	.	.	.	.	.	.	.	.	.	.	.	.	.	.	.	.	.
32DD\	.	.	.	.	.	.	.	.	.	.	.	.	.	.	.	.	.	.	.	.	.	.
32AA\	.	.	.	.	.	.	.	.	.	.	.	.	.	.	.	.	.	.	.	.	.	.
32DD\	.	.	.	.	.	.	.	.	.	.	.	.	.	.	.	.	.	.	.	.	.	.
32AA\JJJ	.	.	.	.	.	.	.	.	.	.	.	.	.	.	.	.	.	.	.	.	.	.
=33	=33	=33	=33	=33	=33	=33	=33	=33	=33	=33	=33	=33	=33	=33	=33	=33	=33	=33	=33	=33	=33	=33
32DD\LLL	4D</ 4B</	.	1ryy	.	.	.	1ryy	.	.	.	1ryy	.	.	.	1ryy	.	.	.	2D\	mo-	ma-	.
32D\	.	.	.	.	.	.	.	.	.	.	.	.	.	.	.	.	.	.	.	.	.	.
32DD\	.	.	.	.	.	.	.	.	.	.	.	.	.	.	.	.	.	.	.	.	.	.
32D\	.	.	.	.	.	.	.	.	.	.	.	.	.	.	.	.	.	.	.	.	.	.
32DD\	.	.	.	.	.	.	.	.	.	.	.	.	.	.	.	.	.	.	.	.	.	.
32D\	.	.	.	.	.	.	.	.	.	.	.	.	.	.	.	.	.	.	.	.	.	.
32DD\	.	.	.	.	.	.	.	.	.	.	.	.	.	.	.	.	.	.	.	.	.	.
32D\	.	.	.	.	.	.	.	.	.	.	.	.	.	.	.	.	.	.	.	.	.	.
32DD\	4Fn</ 4A</	.	.	.	.	.	.	.	.	.	.	.	.	.	.	.	.	.	.	.	.	.
32D\	.	.	.	.	.	.	.	.	.	.	.	.	.	.	.	.	.	.	.	.	.	.
32DD\	.	.	.	.	.	.	.	.	.	.	.	.	.	.	.	.	.	.	.	.	.	.
32D\	.	.	.	.	.	.	.	.	.	.	.	.	.	.	.	.	.	.	.	.	.	.
32DD\	.	.	.	.	.	.	.	.	.	.	.	.	.	.	.	.	.	.	.	.	.	.
32D\	.	.	.	.	.	.	.	.	.	.	.	.	.	.	.	.	.	.	.	.	.	.
32DD\	.	.	.	.	.	.	.	.	.	.	.	.	.	.	.	.	.	.	.	.	.	.
32D\JJJ	.	.	.	.	.	.	.	.	.	.	.	.	.	.	.	.	.	.	.	.	.	.
32DD\LLL	4BB</ 4E</ 4G#X</	.	.	.	.	.	.	.	.	.	.	.	.	.	.	.	.	.	8D\	-cy,	-le	.
32D\	.	.	.	.	.	.	.	.	.	.	.	.	.	.	.	.	.	.	.	.	.	.
32DD\	.	.	.	.	.	.	.	.	.	.	.	.	.	.	.	.	.	.	.	.	.	.
32D\	.	.	.	.	.	.	.	.	.	.	.	.	.	.	.	.	.	.	.	.	.	.
32DD\	.	.	.	.	.	.	.	.	.	.	.	.	.	.	.	.	.	.	8r	.	.	.
32D\	.	.	.	.	.	.	.	.	.	.	.	.	.	.	.	.	.	.	.	.	.	.
32DD\	.	.	.	.	.	.	.	.	.	.	.	.	.	.	.	.	.	.	.	.	.	.
32D\	.	.	.	.	.	.	.	.	.	.	.	.	.	.	.	.	.	.	.	.	.	.
32DD\	4BB-X</) 4D</ 4Gn</	.	.	.	.	.	.	.	.	.	.	.	.	.	.	.	.	.	4D\	o-	con-	.
32D\	.	.	.	.	.	.	.	.	.	.	.	.	.	.	.	.	.	.	.	.	.	.
32DD\	.	.	.	.	.	.	.	.	.	.	.	.	.	.	.	.	.	.	.	.	.	.
32D\	.	.	.	.	.	.	.	.	.	.	.	.	.	.	.	.	.	.	.	.	.	.
32DD\	.	.	.	.	.	.	.	.	.	.	.	.	.	.	.	.	.	.	.	.	.	.
32D\	.	.	.	.	.	.	.	.	.	.	.	.	.	.	.	.	.	.	.	.	.	.
32DD\	.	.	.	.	.	.	.	.	.	.	.	.	.	.	.	.	.	.	.	.	.	.
32D\JJJ	.	.	.	.	.	.	.	.	.	.	.	.	.	.	.	.	.	.	.	.	.	.
*Xtremolo	*	*	*	*	*	*	*	*	*	*	*	*	*	*	*	*	*	*	*	*	*	*
!!LO:LB:g=original
=34	=34	=34	=34	=34	=34	=34	=34	=34	=34	=34	=34	=34	=34	=34	=34	=34	=34	=34	=34	=34	=34	=34
!	!	!	!	!	!	!	!	!	!	!	!	!	!	!	!	!	!	!	!LO:TX:a:B:t=Più mosso:color=blue	!	!	!
8DD\	8AA</ 8D</ 8F#</	.	1ryy	.	.	.	1ryy	.	.	.	1ryy	.	.	.	1ryy	.	.	.	8.D\L	-kro-	dan-	.
8r	8r	.	.	.	.	.	.	.	.	.	.	.	.	.	.	.	.	.	.	.	.	.
.	.	.	.	.	.	.	.	.	.	.	.	.	.	.	.	.	.	.	16E\Jk	.	.	.
4r	4r	.	.	.	.	.	.	.	.	.	.	.	.	.	.	.	.	.	8.F#\L	-pne	-na-	.
.	.	.	.	.	.	.	.	.	.	.	.	.	.	.	.	.	.	.	16G\Jk	.	.	.
2r	2r	.	.	.	.	.	.	.	.	.	.	.	.	.	.	.	.	.	8.A\L	czu-	-to	.
.	.	.	.	.	.	.	.	.	.	.	.	.	.	.	.	.	.	.	16B\Jk	.	al	.
.	.	.	.	.	.	.	.	.	.	.	.	.	.	.	.	.	.	.	8.c#\	-ję	rio	.
.	.	.	.	.	.	.	.	.	.	.	.	.	.	.	.	.	.	.	16d\	mę-	ser-	.
=35	=35	=35	=35	=35	=35	=35	=35	=35	=35	=35	=35	=35	=35	=35	=35	=35	=35	=35	=35	=35	=35	=35
*	*^	*	*	*	*	*	*	*	*	*	*	*	*	*	*	*	*	*	*	*	*	*
!	!	!	!LO:DY:rj	!	!	!	!	!	!	!	!	!	!	!	!	!	!	!	!	!	!	!	!
1ryy	(>16ee/LL	8g#X\L 8b\ 8dd\	f >	1ryy	.	.	.	1ryy	.	.	.	1ryy	.	.	.	1ryy	.	.	.	2e\	-czar-	-vag-	.
.	16ffn/)	.	.	.	.	.	.	.	.	.	.	.	.	.	.	.	.	.	.	.	.	.	.
.	(>16ff/	8g#\ 8b\ 8dd\	.	.	.	.	.	.	.	.	.	.	.	.	.	.	.	.	.	.	.	.	.
.	16ee/JJ)	.	.	.	.	.	.	.	.	.	.	.	.	.	.	.	.	.	.	.	.	.	.
.	(>16ee/LL	8g#\ 8b\ 8dd\	.	.	.	.	.	.	.	.	.	.	.	.	.	.	.	.	.	.	.	.	.
.	16ff/)	.	.	.	.	.	.	.	.	.	.	.	.	.	.	.	.	.	.	.	.	.	.
.	(>16ff/	8g#\J 8b\ 8dd\	.	.	.	.	.	.	.	.	.	.	.	.	.	.	.	.	.	.	.	.	.
.	16ee/JJ)	.	.	.	.	.	.	.	.	.	.	.	.	.	.	.	.	.	.	.	.	.	.
*	*	*tremolo	*	*	*	*	*	*	*	*	*	*	*	*	*	*	*	*	*	*	*	*	*
.	(>16ee/LL	8gn\L 8b-X\ 8dd\	.	.	.	.	.	.	.	.	.	.	.	.	.	.	.	.	.	8E\	-nie,	-gio,	.
.	16ff#X/)	.	.	.	.	.	.	.	.	.	.	.	.	.	.	.	.	.	.	.	.	.	.
.	(>16ff#/	8g\ 8b-\ 8dd\	.	.	.	.	.	.	.	.	.	.	.	.	.	.	.	.	.	8r	.	.	.
.	16ee/JJ)	.	.	.	.	.	.	.	.	.	.	.	.	.	.	.	.	.	.	.	.	.	.
.	(>16ee/LL	8g\ 8b-\ 8dd\	.	.	.	.	.	.	.	.	.	.	.	.	.	.	.	.	.	8.E\	je-	de-	.
.	16ff#/)	.	.	.	.	.	.	.	.	.	.	.	.	.	.	.	.	.	.	.	.	.	.
.	(>16ff#/	8g\J 8b-\ 8dd\	.	.	.	.	.	.	.	.	.	.	.	.	.	.	.	.	.	.	.	.	.
.	16ee/JJ)	.	.	.	.	.	.	.	.	.	.	.	.	.	.	.	.	.	.	16F#\	-stem	-gl[i]	.
*	*	*Xtremolo	*	*	*	*	*	*	*	*	*	*	*	*	*	*	*	*	*	*	*	*	*
=36	=36	=36	=36	=36	=36	=36	=36	=36	=36	=36	=36	=36	=36	=36	=36	=36	=36	=36	=36	=36	=36	=36	=36
*	*Xtremolo	*tremolo	*	*	*	*	*	*	*	*	*	*	*	*	*	*	*	*	*	*	*	*	*
1ryy	(>16ee/LL	8g\L 8a\ 8cc#X\	.	1ryy	.	.	.	1ryy	.	.	.	1ryy	.	.	.	1ryy	.	.	.	4G\	w złe-	spi-	.
.	16ff#/)	.	.	.	.	.	.	.	.	.	.	.	.	.	.	.	.	.	.	.	.	.	.
.	(>16ff#/	8g\J 8a\ 8cc#\	]	.	.	.	.	.	.	.	.	.	.	.	.	.	.	.	.	.	.	.	.
.	16ee/JJ)	.	.	.	.	.	.	.	.	.	.	.	.	.	.	.	.	.	.	.	.	.	.
.	(>16dd#X/LL	8f#\L 8a\ 8ccn\	.	.	.	.	.	.	.	.	.	.	.	.	.	.	.	.	.	4A\	-go	-ri-	.
.	16ee/)	.	.	.	.	.	.	.	.	.	.	.	.	.	.	.	.	.	.	.	.	.	.
.	(>16ee/	8f#\J 8a\ 8cc\	.	.	.	.	.	.	.	.	.	.	.	.	.	.	.	.	.	.	.	.	.
.	16dd#/JJ)	.	.	.	.	.	.	.	.	.	.	.	.	.	.	.	.	.	.	.	.	.	.
.	(>16ddn/LL	8fn\L 8a\ 8b\	.	.	.	.	.	.	.	.	.	.	.	.	.	.	.	.	.	4B\	du-	.	.
.	16ee/)	.	.	.	.	.	.	.	.	.	.	.	.	.	.	.	.	.	.	.	.	.	.
.	(>16ee/	8f\J 8a\ 8b\	.	.	.	.	.	.	.	.	.	.	.	.	.	.	.	.	.	.	.	.	.
.	16dd/JJ)	.	.	.	.	.	.	.	.	.	.	.	.	.	.	.	.	.	.	.	.	.	.
.	(>16cc#X/LL	8e\L 8g\ 8b-X\	.	.	.	.	.	.	.	.	.	.	.	.	.	.	.	.	.	8c#\L	-cha	-ti	.
.	16dd/)	.	.	.	.	.	.	.	.	.	.	.	.	.	.	.	.	.	.	.	.	.	.
.	(>16dd/	8e\J 8g\ 8b-\	.	.	.	.	.	.	.	.	.	.	.	.	.	.	.	.	.	8B\J	.	del	.
.	16cc#/JJ)	.	.	.	.	.	.	.	.	.	.	.	.	.	.	.	.	.	.	.	.	.	.
!!LO:LB:g=original
=37	=37	=37	=37	=37	=37	=37	=37	=37	=37	=37	=37	=37	=37	=37	=37	=37	=37	=37	=37	=37	=37	=37	=37
1ryy	(>16b/LL	8d\L 8e#X\ 8g#X\	<	1ryy	.	.	.	1ryy	.	.	.	1ryy	.	.	.	1ryy	.	.	.	[>2B\	mo-	ma-	.
.	16cc#/	.	.	.	.	.	.	.	.	.	.	.	.	.	.	.	.	.	.	.	.	.	.
.	16dd/	8d\J 8e#\ 8g#\	.	.	.	.	.	.	.	.	.	.	.	.	.	.	.	.	.	.	.	.	.
.	16ee/JJ	.	.	.	.	.	.	.	.	.	.	.	.	.	.	.	.	.	.	.	.	.	.
.	16ff#/LL	8d\L 8f#\ 8a\	.	.	.	.	.	.	.	.	.	.	.	.	.	.	.	.	.	.	.	.	.
.	16gg/	.	.	.	.	.	.	.	.	.	.	.	.	.	.	.	.	.	.	.	.	.	.
.	16aa/	8d\J 8f#\ 8a\	.	.	.	.	.	.	.	.	.	.	.	.	.	.	.	.	.	.	.	.	.
.	16bb/JJ	.	.	.	.	.	.	.	.	.	.	.	.	.	.	.	.	.	.	.	.	.	.
.	16ccc#/LL	8d\L 8gn\ 8a\	[ >	.	.	.	.	.	.	.	.	.	.	.	.	.	.	.	.	8B\L]	.	.	.
.	16eee/	.	.	.	.	.	.	.	.	.	.	.	.	.	.	.	.	.	.	.	.	.	.
.	16ddd/	8d\J 8g\ 8a\	.	.	.	.	.	.	.	.	.	.	.	.	.	.	.	.	.	8A\J	.	-le	.
.	16ccc#/JJ	.	.	.	.	.	.	.	.	.	.	.	.	.	.	.	.	.	.	.	.	.	.
.	16bb/LL	8d\L 8f#\ 8dd\	.	.	.	.	.	.	.	.	.	.	.	.	.	.	.	.	.	8G\	-cy,	<...>-	.
.	16aa/	.	.	.	.	.	.	.	.	.	.	.	.	.	.	.	.	.	.	.	.	.	.
.	16gg/	8d\J 8f#\ 8dd\	.	.	.	.	.	.	.	.	.	.	.	.	.	.	.	.	.	8F#\	o-	-dam-	.
.	16ff#/JJ)	.	]	.	.	.	.	.	.	.	.	.	.	.	.	.	.	.	.	.	.	.	.
*	*	*Xtremolo	*	*	*	*	*	*	*	*	*	*	*	*	*	*	*	*	*	*	*	*	*
=38	=38	=38	=38	=38	=38	=38	=38	=38	=38	=38	=38	=38	=38	=38	=38	=38	=38	=38	=38	=38	=38	=38	=38
1ryy	(>16ee/LL	8g\L 8b\	.	1ryy	.	.	.	1ryy	.	.	.	1ryy	.	.	.	1ryy	.	.	.	8E\L	-kro-	-na-	.
.	16ff#/	.	.	.	.	.	.	.	.	.	.	.	.	.	.	.	.	.	.	.	.	.	.
.	16dd/	8f#\ 8a\	.	.	.	.	.	.	.	.	.	.	.	.	.	.	.	.	.	8F#\J	.	.	.
.	16ee/JJ	.	.	.	.	.	.	.	.	.	.	.	.	.	.	.	.	.	.	.	.	.	.
.	16cc#/LL	8e\ 8g\	.	.	.	.	.	.	.	.	.	.	.	.	.	.	.	.	.	8G\L	-pne	-to	.
.	16dd/	.	.	.	.	.	.	.	.	.	.	.	.	.	.	.	.	.	.	.	.	.	.
.	16b/	8d\J 8f#\	.	.	.	.	.	.	.	.	.	.	.	.	.	.	.	.	.	8A\J	.	.	.
.	16cc#/JJ	.	.	.	.	.	.	.	.	.	.	.	.	.	.	.	.	.	.	.	.	.	.
.	16a/LL	8c#\L 8e\	.	.	.	.	.	.	.	.	.	.	.	.	.	.	.	.	.	8B\L	czu-	al	.
.	16b/	.	.	.	.	.	.	.	.	.	.	.	.	.	.	.	.	.	.	.	.	.	.
.	16g/	8B\ 8d\	.	.	.	.	.	.	.	.	.	.	.	.	.	.	.	.	.	8c#\J	.	.	.
.	16a/JJ	.	.	.	.	.	.	.	.	.	.	.	.	.	.	.	.	.	.	.	.	.	.
.	16f#/LL	8A\ 8c#\	.	.	.	.	.	.	.	.	.	.	.	.	.	.	.	.	.	8d\	-ję	rio	.
.	16g/	.	.	.	.	.	.	.	.	.	.	.	.	.	.	.	.	.	.	.	.	.	.
.	16e/	8G\J 8B\	.	.	.	.	.	.	.	.	.	.	.	.	.	.	.	.	.	8e\	mę-	ser-	.
.	16f#/JJ)	.	.	.	.	.	.	.	.	.	.	.	.	.	.	.	.	.	.	.	.	.	.
*	*v	*v	*	*	*	*	*	*	*	*	*	*	*	*	*	*	*	*	*	*	*	*	*
!!LO:LB:g=original
=39	=39	=39	=39	=39	=39	=39	=39	=39	=39	=39	=39	=39	=39	=39	=39	=39	=39	=39	=39	=39	=39	=39
!LO:TX:b:i:t=il bassoligatissimo.	!	!LO:DY:rj	!	!	!	!	!	!	!	!	!	!	!	!	!	!	!	!	!	!	!	!
(>4FF#^>\	(>16cn/LL 16e/	pp	1ryy	.	.	.	1ryy	.	.	.	1ryy	.	.	.	1ryy	.	.	.	2f#\	-czar-	-vag-	.
.	16A/	.	.	.	.	.	.	.	.	.	.	.	.	.	.	.	.	.	.	.	.	.
.	16c/ 16d#X/	.	.	.	.	.	.	.	.	.	.	.	.	.	.	.	.	.	.	.	.	.
.	16A/JJ	.	.	.	.	.	.	.	.	.	.	.	.	.	.	.	.	.	.	.	.	.
*	*rep	*	*	*	*	*	*	*	*	*	*	*	*	*	*	*	*	*	*	*	*	*
4AA\	16c/LL 16e/	.	.	.	.	.	.	.	.	.	.	.	.	.	.	.	.	.	.	.	.	.
.	16A/	.	.	.	.	.	.	.	.	.	.	.	.	.	.	.	.	.	.	.	.	.
.	16c/ 16d#/	.	.	.	.	.	.	.	.	.	.	.	.	.	.	.	.	.	.	.	.	.
.	16A/JJ	.	.	.	.	.	.	.	.	.	.	.	.	.	.	.	.	.	.	.	.	.
*	*Xrep	*	*	*	*	*	*	*	*	*	*	*	*	*	*	*	*	*	*	*	*	*
4Cn\	16A</LL 16e/	.	.	.	.	.	.	.	.	.	.	.	.	.	.	.	.	.	8F#\	-nie,	-gio	.
.	16F#</	.	.	.	.	.	.	.	.	.	.	.	.	.	.	.	.	.	.	.	.	.
.	16A</ 16d#X/	.	.	.	.	.	.	.	.	.	.	.	.	.	.	.	.	.	8r	.	.	.
.	16F#</JJ	.	.	.	.	.	.	.	.	.	.	.	.	.	.	.	.	.	.	.	.	.
4AA\)	16c/LL 16e/	.	.	.	.	.	.	.	.	.	.	.	.	.	.	.	.	.	8A\	kę-	La	.
.	16F#</	.	.	.	.	.	.	.	.	.	.	.	.	.	.	.	.	.	.	.	.	.
.	16c/ 16d#	.	.	.	.	.	.	.	.	.	.	.	.	.	.	.	.	.	8A\	-dy	mi	.
.	16F#</JJ)	.	.	.	.	.	.	.	.	.	.	.	.	.	.	.	.	.	.	.	.	.
=40	=40	=40	=40	=40	=40	=40	=40	=40	=40	=40	=40	=40	=40	=40	=40	=40	=40	=40	=40	=40	=40	=40
(>4GG#X^>\	(>16cn/LL 16e/	.	1ryy	.	.	.	1ryy	.	.	.	1ryy	.	.	.	1ryy	.	.	.	2G#X\	noc	vol-	.
.	16Fn</	.	.	.	.	.	.	.	.	.	.	.	.	.	.	.	.	.	.	.	.	.
.	16B/ 16d/	.	.	.	.	.	.	.	.	.	.	.	.	.	.	.	.	.	.	.	.	.
.	16F</JJ	.	.	.	.	.	.	.	.	.	.	.	.	.	.	.	.	.	.	.	.	.
*	*rep	*	*	*	*	*	*	*	*	*	*	*	*	*	*	*	*	*	*	*	*	*
4BB\	16c/LL 16e/	.	.	.	.	.	.	.	.	.	.	.	.	.	.	.	.	.	.	.	.	.
.	16F</	.	.	.	.	.	.	.	.	.	.	.	.	.	.	.	.	.	.	.	.	.
.	16B/ 16d/	.	.	.	.	.	.	.	.	.	.	.	.	.	.	.	.	.	.	.	.	.
.	16F</JJ	.	.	.	.	.	.	.	.	.	.	.	.	.	.	.	.	.	.	.	.	.
*	*Xrep	*	*	*	*	*	*	*	*	*	*	*	*	*	*	*	*	*	*	*	*	*
*	*rep	*	*	*	*	*	*	*	*	*	*	*	*	*	*	*	*	*	*	*	*	*
4D\	16c/LL 16e/	.	.	.	.	.	.	.	.	.	.	.	.	.	.	.	.	.	4G#\	zie-	-go o-	.
.	16F</	.	.	.	.	.	.	.	.	.	.	.	.	.	.	.	.	.	.	.	.	.
.	16B/ 16d/	.	.	.	.	.	.	.	.	.	.	.	.	.	.	.	.	.	.	.	.	.
.	16F</JJ	.	.	.	.	.	.	.	.	.	.	.	.	.	.	.	.	.	.	.	.	.
*	*Xrep	*	*	*	*	*	*	*	*	*	*	*	*	*	*	*	*	*	*	*	*	*
*	*rep	*	*	*	*	*	*	*	*	*	*	*	*	*	*	*	*	*	*	*	*	*
4BB\)	16c/LL 16e	.	.	.	.	.	.	.	.	.	.	.	.	.	.	.	.	.	8G#\	-mię	-re	.
.	16F</	.	.	.	.	.	.	.	.	.	.	.	.	.	.	.	.	.	.	.	.	.
.	16B/ 16d	.	.	.	.	.	.	.	.	.	.	.	.	.	.	.	.	.	8G#\	o-	la	.
!	!LO:TX:b:t=V&colon; S&colon;	!	!	!	!	!	!	!	!	!	!	!	!	!	!	!	!	!	!	!	!	!
.	16F</JJ)	.	.	.	.	.	.	.	.	.	.	.	.	.	.	.	.	.	.	.	.	.
*	*Xrep	*	*	*	*	*	*	*	*	*	*	*	*	*	*	*	*	*	*	*	*	*
!!LO:PB:g=original
=41	=41	=41	=41	=41	=41	=41	=41	=41	=41	=41	=41	=41	=41	=41	=41	=41	=41	=41	=41	=41	=41	=41
(>4GGn\	(16cn/LL 16e/	.	1ryy	.	.	.	1ryy	.	.	.	1ryy	.	.	.	1ryy	.	.	.	2Gn\	-gar-	not-	.
.	16Fn</	.	.	.	.	.	.	.	.	.	.	.	.	.	.	.	.	.	.	.	.	.
.	16B/ 16d/	.	.	.	.	.	.	.	.	.	.	.	.	.	.	.	.	.	.	.	.	.
.	16F</JJ	.	.	.	.	.	.	.	.	.	.	.	.	.	.	.	.	.	.	.	.	.
*	*rep	*	*	*	*	*	*	*	*	*	*	*	*	*	*	*	*	*	*	*	*	*
4BB\	16c/LL 16e/	.	.	.	.	.	.	.	.	.	.	.	.	.	.	.	.	.	.	.	.	.
.	16F</	.	.	.	.	.	.	.	.	.	.	.	.	.	.	.	.	.	.	.	.	.
.	16B/ 16d/	.	.	.	.	.	.	.	.	.	.	.	.	.	.	.	.	.	.	.	.	.
.	16F</JJ	.	.	.	.	.	.	.	.	.	.	.	.	.	.	.	.	.	.	.	.	.
*	*Xrep	*	*	*	*	*	*	*	*	*	*	*	*	*	*	*	*	*	*	*	*	*
*	*rep	*	*	*	*	*	*	*	*	*	*	*	*	*	*	*	*	*	*	*	*	*
4D\	16c/LL 16e/	.	.	.	.	.	.	.	.	.	.	.	.	.	.	.	.	.	8G\	-nie,	-te	.
.	16F</	.	.	.	.	.	.	.	.	.	.	.	.	.	.	.	.	.	.	.	.	.
.	16B/ 16d/	.	.	.	.	.	.	.	.	.	.	.	.	.	.	.	.	.	8r	.	.	.
.	16F</JJ	.	.	.	.	.	.	.	.	.	.	.	.	.	.	.	.	.	.	.	.	.
*	*Xrep	*	*	*	*	*	*	*	*	*	*	*	*	*	*	*	*	*	*	*	*	*
*	*rep	*	*	*	*	*	*	*	*	*	*	*	*	*	*	*	*	*	*	*	*	*
4BB\)	16c/LL 16e/	.	.	.	.	.	.	.	.	.	.	.	.	.	.	.	.	.	8G\	i-	sten-	.
.	16F</	.	.	.	.	.	.	.	.	.	.	.	.	.	.	.	.	.	.	.	.	.
.	16B/ 16d	.	.	.	.	.	.	.	.	.	.	.	.	.	.	.	.	.	8G\	-dę	-de il	.
.	16F</JJ)	.	.	.	.	.	.	.	.	.	.	.	.	.	.	.	.	.	.	.	.	.
*	*Xrep	*	*	*	*	*	*	*	*	*	*	*	*	*	*	*	*	*	*	*	*	*
=42	=42	=42	=42	=42	=42	=42	=42	=42	=42	=42	=42	=42	=42	=42	=42	=42	=42	=42	=42	=42	=42	=42
(<4FF#^>\	(>16c#/LL 16e/	.	1ryy	.	.	.	1ryy	.	.	.	1ryy	.	.	.	1ryy	.	.	.	4F#\	tam	man-	.
.	16F#</	.	.	.	.	.	.	.	.	.	.	.	.	.	.	.	.	.	.	.	.	.
.	16B/ 16d/	.	.	.	.	.	.	.	.	.	.	.	.	.	.	.	.	.	.	.	.	.
.	16F#</JJ	.	.	.	.	.	.	.	.	.	.	.	.	.	.	.	.	.	.	.	.	.
!!mixed beam:problem
!	!LO:TX:t=P:problem:mixed beam	!	!	!	!	!	!	!	!	!	!	!	!	!	!	!	!	!	!	!	!	!
4BB^>\	16G</LL 16B</	.	.	.	.	.	.	.	.	.	.	.	.	.	.	.	.	.	4B\	szu-	-to	.
.	16d\	.	.	.	.	.	.	.	.	.	.	.	.	.	.	.	.	.	.	.	.	.
.	16F#</ 16B</	.	.	.	.	.	.	.	.	.	.	.	.	.	.	.	.	.	.	.	.	.
.	16d\JJ	.	.	.	.	.	.	.	.	.	.	.	.	.	.	.	.	.	.	.	.	.
!!mixed beam:problem
!	!LO:TX:t=P:problem:mixed beam	!	!	!	!	!	!	!	!	!	!	!	!	!	!	!	!	!	!	!	!	!
4D^>\	16G</LL 16B</	.	.	.	.	.	.	.	.	.	.	.	.	.	.	.	.	.	4.d\	-ka-	suo	.
.	16d\	.	.	.	.	.	.	.	.	.	.	.	.	.	.	.	.	.	.	.	.	.
.	16F#</ 16B</	.	.	.	.	.	.	.	.	.	.	.	.	.	.	.	.	.	.	.	.	.
.	16d\JJ	.	.	.	.	.	.	.	.	.	.	.	.	.	.	.	.	.	.	.	.	.
!!mixed beam:problem
!	!LO:TX:t=P:problem:mixed beam	!	!	!	!	!	!	!	!	!	!	!	!	!	!	!	!	!	!	!	!	!
4BB^>\)	16G</LL 16B<	.	.	.	.	.	.	.	.	.	.	.	.	.	.	.	.	.	.	.	.	.
.	16d\	.	.	.	.	.	.	.	.	.	.	.	.	.	.	.	.	.	.	.	.	.
.	16F#</ 16B</	.	.	.	.	.	.	.	.	.	.	.	.	.	.	.	.	.	8c#\	-jąc	fe-	.
.	16d\JJ)	.	.	.	.	.	.	.	.	.	.	.	.	.	.	.	.	.	.	.	.	.
=43	=43	=43	=43	=43	=43	=43	=43	=43	=43	=43	=43	=43	=43	=43	=43	=43	=43	=43	=43	=43	=43	=43
(>8E\L	(>16g/LL	.	1ryy	.	.	.	1ryy	.	.	.	1ryy	.	.	.	1ryy	.	.	.	(>2B\	no-	-ra-	.
.	16G/	.	.	.	.	.	.	.	.	.	.	.	.	.	.	.	.	.	.	.	.	.
8D\	16f#/	.	.	.	.	.	.	.	.	.	.	.	.	.	.	.	.	.	.	.	.	.
.	16G/JJ	.	.	.	.	.	.	.	.	.	.	.	.	.	.	.	.	.	.	.	.	.
8E\	16g/LL	.	.	.	.	.	.	.	.	.	.	.	.	.	.	.	.	.	.	.	.	.
.	16G/	.	.	.	.	.	.	.	.	.	.	.	.	.	.	.	.	.	.	.	.	.
8BB^>\J)	16d^</	.	.	.	.	.	.	.	.	.	.	.	.	.	.	.	.	.	.	.	.	.
.	16G/JJ	.	.	.	.	.	.	.	.	.	.	.	.	.	.	.	.	.	.	.	.	.
(>8E\L	16g/LL	.	.	.	.	.	.	.	.	.	.	.	.	.	.	.	.	.	4B\	-cy,	-le	.
.	16G/	.	.	.	.	.	.	.	.	.	.	.	.	.	.	.	.	.	.	.	.	.
8D\	16f#/	.	.	.	.	.	.	.	.	.	.	.	.	.	.	.	.	.	.	.	.	.
.	16G/JJ	.	.	.	.	.	.	.	.	.	.	.	.	.	.	.	.	.	.	.	.	.
8E\	16g/LL	.	.	.	.	.	.	.	.	.	.	.	.	.	.	.	.	.	[>4B\)	a	on-	.
.	16G/	.	.	.	.	.	.	.	.	.	.	.	.	.	.	.	.	.	.	.	.	.
8BB^>\J)	16d^</	.	.	.	.	.	.	.	.	.	.	.	.	.	.	.	.	.	.	.	.	.
.	16G/JJ)	.	.	.	.	.	.	.	.	.	.	.	.	.	.	.	.	.	.	.	.	.
!!LO:LB:g=original
=44	=44	=44	=44	=44	=44	=44	=44	=44	=44	=44	=44	=44	=44	=44	=44	=44	=44	=44	=44	=44	=44	=44
(>8F#\L	(<16a/LL	.	1ryy	.	.	.	1ryy	.	.	.	1ryy	.	.	.	1ryy	.	.	.	4B\]	.	.	.
.	16A/	.	.	.	.	.	.	.	.	.	.	.	.	.	.	.	.	.	.	.	.	.
8E\	16g/	.	.	.	.	.	.	.	.	.	.	.	.	.	.	.	.	.	.	.	.	.
.	16A/JJ	.	.	.	.	.	.	.	.	.	.	.	.	.	.	.	.	.	.	.	.	.
8F#\	16a/LL	.	.	.	.	.	.	.	.	.	.	.	.	.	.	.	.	.	8.B\	u-	-de e-	.
.	16A/	.	.	.	.	.	.	.	.	.	.	.	.	.	.	.	.	.	.	.	.	.
8BB^>\J)	16d^</	.	.	.	.	.	.	.	.	.	.	.	.	.	.	.	.	.	.	.	.	.
.	16A/JJ)	.	.	.	.	.	.	.	.	.	.	.	.	.	.	.	.	.	16B\	-cie-	-vi-	.
(>8F#\L	(<16a/LL	.	.	.	.	.	.	.	.	.	.	.	.	.	.	.	.	.	4B\	-ka-	-ta-	.
.	16A/	.	.	.	.	.	.	.	.	.	.	.	.	.	.	.	.	.	.	.	.	.
8E\	16g/	.	.	.	.	.	.	.	.	.	.	.	.	.	.	.	.	.	.	.	.	.
.	16A/JJ	.	.	.	.	.	.	.	.	.	.	.	.	.	.	.	.	.	.	.	.	.
8F#\	16a/LL	.	.	.	.	.	.	.	.	.	.	.	.	.	.	.	.	.	8B\	-jąc	-re	.
.	16A/	.	.	.	.	.	.	.	.	.	.	.	.	.	.	.	.	.	.	.	.	.
8BB^>\J)	16d^</	.	.	.	.	.	.	.	.	.	.	.	.	.	.	.	.	.	8B\	od	del	.
.	16A/JJ)	.	.	.	.	.	.	.	.	.	.	.	.	.	.	.	.	.	.	.	.	.
=45	=45	=45	=45	=45	=45	=45	=45	=45	=45	=45	=45	=45	=45	=45	=45	=45	=45	=45	=45	=45	=45	=45
(>8G\L	(<16b/LL	.	1ryy	.	.	.	1ryy	.	.	.	1ryy	.	.	.	1ryy	.	.	.	2B\	słoń-	so-	.
.	16B/	.	.	.	.	.	.	.	.	.	.	.	.	.	.	.	.	.	.	.	.	.
8F#\	16a/	.	.	.	.	.	.	.	.	.	.	.	.	.	.	.	.	.	.	.	.	.
.	16B/JJ	.	.	.	.	.	.	.	.	.	.	.	.	.	.	.	.	.	.	.	.	.
8G\	16b/LL	.	.	.	.	.	.	.	.	.	.	.	.	.	.	.	.	.	.	.	.	.
.	16B/	.	.	.	.	.	.	.	.	.	.	.	.	.	.	.	.	.	.	.	.	.
8BB^>\J)	16d^</	.	.	.	.	.	.	.	.	.	.	.	.	.	.	.	.	.	.	.	.	.
.	16B/JJ)	.	.	.	.	.	.	.	.	.	.	.	.	.	.	.	.	.	.	.	.	.
(>8G\L	(<16b/LL	.	.	.	.	.	.	.	.	.	.	.	.	.	.	.	.	.	4.B\	-ca	le,	.
.	16B/	.	.	.	.	.	.	.	.	.	.	.	.	.	.	.	.	.	.	.	.	.
8F#\	16a/	.	.	.	.	.	.	.	.	.	.	.	.	.	.	.	.	.	.	.	.	.
.	16B/JJ	.	.	.	.	.	.	.	.	.	.	.	.	.	.	.	.	.	.	.	.	.
8G\	16b/LL	.	.	.	.	.	.	.	.	.	.	.	.	.	.	.	.	.	.	.	.	.
.	16B/	.	.	.	.	.	.	.	.	.	.	.	.	.	.	.	.	.	.	.	.	.
8BB^>\J)	16d^</	.	.	.	.	.	.	.	.	.	.	.	.	.	.	.	.	.	8B\	tak	il	.
.	16B/JJ)	.	.	.	.	.	.	.	.	.	.	.	.	.	.	.	.	.	.	.	.	.
!!LO:LB:g=original
=46	=46	=46	=46	=46	=46	=46	=46	=46	=46	=46	=46	=46	=46	=46	=46	=46	=46	=46	=46	=46	=46	=46
(>8A\L	(<16ccn/LL	.	1ryy	.	.	.	1ryy	.	.	.	1ryy	.	.	.	1ryy	.	.	.	4.cn\	pę-	rag-	.
.	16cn/	.	.	.	.	.	.	.	.	.	.	.	.	.	.	.	.	.	.	.	.	.
8G\	16b/	.	.	.	.	.	.	.	.	.	.	.	.	.	.	.	.	.	.	.	.	.
.	16c/JJ	.	.	.	.	.	.	.	.	.	.	.	.	.	.	.	.	.	.	.	.	.
8A\	16cc/LL	.	.	.	.	.	.	.	.	.	.	.	.	.	.	.	.	.	.	.	.	.
.	16c/	.	.	.	.	.	.	.	.	.	.	.	.	.	.	.	.	.	.	.	.	.
8E^>\J)	16e^</	.	.	.	.	.	.	.	.	.	.	.	.	.	.	.	.	.	8c\	-dzę	-gio	.
.	16c/JJ)	.	.	.	.	.	.	.	.	.	.	.	.	.	.	.	.	.	.	.	.	.
(>8A\L	(<16cc/LL	.	.	.	.	.	.	.	.	.	.	.	.	.	.	.	.	.	4c\	ży-	sfol-	.
.	16c/	.	.	.	.	.	.	.	.	.	.	.	.	.	.	.	.	.	.	.	.	.
8G\	16b/	.	.	.	.	.	.	.	.	.	.	.	.	.	.	.	.	.	.	.	.	.
.	16c/JJ	.	.	.	.	.	.	.	.	.	.	.	.	.	.	.	.	.	.	.	.	.
8A\	16cc/LL	.	.	.	.	.	.	.	.	.	.	.	.	.	.	.	.	.	8c\	-wot	-go	.
.	16c/	.	.	.	.	.	.	.	.	.	.	.	.	.	.	.	.	.	.	.	.	.
8E^>\J)	16e^</	.	.	.	.	.	.	.	.	.	.	.	.	.	.	.	.	.	8c\	tu-	reg-	.
.	16c/JJ)	.	.	.	.	.	.	.	.	.	.	.	.	.	.	.	.	.	.	.	.	.
=47	=47	=47	=47	=47	=47	=47	=47	=47	=47	=47	=47	=47	=47	=47	=47	=47	=47	=47	=47	=47	=47	=47
(>8B\L	(<16dd/LL	.	1ryy	.	.	.	1ryy	.	.	.	1ryy	.	.	.	1ryy	.	.	.	2d\	-ła-	-gian-	.
.	16d/	.	.	.	.	.	.	.	.	.	.	.	.	.	.	.	.	.	.	.	.	.
8A\	16cc#/	.	.	.	.	.	.	.	.	.	.	.	.	.	.	.	.	.	.	.	.	.
.	16d/JJ	.	.	.	.	.	.	.	.	.	.	.	.	.	.	.	.	.	.	.	.	.
8B\	16dd/LL	.	.	.	.	.	.	.	.	.	.	.	.	.	.	.	.	.	.	.	.	.
.	16d/	.	.	.	.	.	.	.	.	.	.	.	.	.	.	.	.	.	.	.	.	.
8E^>\J)	16g^</	.	.	.	.	.	.	.	.	.	.	.	.	.	.	.	.	.	.	.	.	.
.	16d/JJ)	.	.	.	.	.	.	.	.	.	.	.	.	.	.	.	.	.	.	.	.	.
(>8cn\L	(<16ee/LL	.	.	.	.	.	.	.	.	.	.	.	.	.	.	.	.	.	4E\	-czy,	-te,	.
.	16e/	.	.	.	.	.	.	.	.	.	.	.	.	.	.	.	.	.	.	.	.	.
8B\	16dd/	.	.	.	.	.	.	.	.	.	.	.	.	.	.	.	.	.	.	.	.	.
.	16e/JJ	.	.	.	.	.	.	.	.	.	.	.	.	.	.	.	.	.	.	.	.	.
8c\	16ee/LL	.	.	.	.	.	.	.	.	.	.	.	.	.	.	.	.	.	8E\	a	col-	.
.	16e/	.	.	.	.	.	.	.	.	.	.	.	.	.	.	.	.	.	.	.	.	.
8E^>\J)	16g^</	.	.	.	.	.	.	.	.	.	.	.	.	.	.	.	.	.	8E\	nie	-lean-	.
.	16e/JJ)	.	.	.	.	.	.	.	.	.	.	.	.	.	.	.	.	.	.	.	.	.
=48	=48	=48	=48	=48	=48	=48	=48	=48	=48	=48	=48	=48	=48	=48	=48	=48	=48	=48	=48	=48	=48	=48
(>8d\L	(<16ff#/LL	.	1ryy	.	.	.	1ryy	.	.	.	1ryy	.	.	.	1ryy	.	.	.	2d\	znaj-	-go-	.
.	16f#/	.	.	.	.	.	.	.	.	.	.	.	.	.	.	.	.	.	.	.	.	.
8c#\	16ee/	.	.	.	.	.	.	.	.	.	.	.	.	.	.	.	.	.	.	.	.	.
.	16f#/JJ	.	.	.	.	.	.	.	.	.	.	.	.	.	.	.	.	.	.	.	.	.
8d\	16ff#/LL	.	.	.	.	.	.	.	.	.	.	.	.	.	.	.	.	.	.	.	.	.
.	16f#/	.	.	.	.	.	.	.	.	.	.	.	.	.	.	.	.	.	.	.	.	.
8B^>\J)	16dd^</	.	.	.	.	.	.	.	.	.	.	.	.	.	.	.	.	.	.	.	.	.
.	16f#/JJ)	.	.	.	.	.	.	.	.	.	.	.	.	.	.	.	.	.	.	.	.	.
(>8e\L	(<16gg/LL	.	.	.	.	.	.	.	.	.	.	.	.	.	.	.	.	.	4E\	-dę	-sce	.
.	16g/	.	.	.	.	.	.	.	.	.	.	.	.	.	.	.	.	.	.	.	.	.
8d\	16ff#/	.	.	.	.	.	.	.	.	.	.	.	.	.	.	.	.	.	.	.	.	.
.	16g/JJ	.	.	.	.	.	.	.	.	.	.	.	.	.	.	.	.	.	.	.	.	.
8e\	16gg/LL	.	.	.	.	.	.	.	.	.	.	.	.	.	.	.	.	.	8E\	mę-	in-	.
.	16g/	.	.	.	.	.	.	.	.	.	.	.	.	.	.	.	.	.	.	.	.	.
8B^>\J)	16dd^</	.	.	.	.	.	.	.	.	.	.	.	.	.	.	.	.	.	8E\	-kom	-inter-	.
.	16g/JJ)	.	.	.	.	.	.	.	.	.	.	.	.	.	.	.	.	.	.	.	.	.
!!LO:LB:g=original
=49	=49	=49	=49	=49	=49	=49	=49	=49	=49	=49	=49	=49	=49	=49	=49	=49	=49	=49	=49	=49	=49	=49
8f#>\L	16aa/LL	.	1ryy	.	.	.	1ryy	.	.	.	1ryy	.	.	.	1ryy	.	.	.	2d\	koń-	-rot-	.
.	16a/	.	.	.	.	.	.	.	.	.	.	.	.	.	.	.	.	.	.	.	.	.
8d>^>\J	16ff#^</	.	.	.	.	.	.	.	.	.	.	.	.	.	.	.	.	.	.	.	.	.
.	16dd/JJ	.	.	.	.	.	.	.	.	.	.	.	.	.	.	.	.	.	.	.	.	.
8g>\L	16bb/LL	.	.	.	.	.	.	.	.	.	.	.	.	.	.	.	.	.	.	.	.	.
.	16b/	.	.	.	.	.	.	.	.	.	.	.	.	.	.	.	.	.	.	.	.	.
8d>^>\J	16gg^</	.	.	.	.	.	.	.	.	.	.	.	.	.	.	.	.	.	.	.	.	.
.	16dd/JJ	.	.	.	.	.	.	.	.	.	.	.	.	.	.	.	.	.	.	.	.	.
8a>\L	16cccn/LL	.	.	.	.	.	.	.	.	.	.	.	.	.	.	.	.	.	4d\	-ca.	-te	.
.	16ccn/	.	.	.	.	.	.	.	.	.	.	.	.	.	.	.	.	.	.	.	.	.
8d>^>\J	16aa^</	.	.	.	.	.	.	.	.	.	.	.	.	.	.	.	.	.	.	.	.	.
.	16ff#/JJ	.	.	.	.	.	.	.	.	.	.	.	.	.	.	.	.	.	.	.	.	.
8b>\	16ddd/LL	.	.	.	.	.	.	.	.	.	.	.	.	.	.	.	.	.	4r	.	.	.
.	16dd/	.	.	.	.	.	.	.	.	.	.	.	.	.	.	.	.	.	.	.	.	.
8r>	16bb^</ 16ddd	.	.	.	.	.	.	.	.	.	.	.	.	.	.	.	.	.	.	.	.	.
.	16dd/JJ	.	.	.	.	.	.	.	.	.	.	.	.	.	.	.	.	.	.	.	.	.
=50	=50	=50	=50	=50	=50	=50	=50	=50	=50	=50	=50	=50	=50	=50	=50	=50	=50	=50	=50	=50	=50	=50
*^	*	*	*	*	*	*	*	*	*	*	*	*	*	*	*	*	*	*	*	*	*	*
!	!	!	!LO:DY:rj	!	!	!	!	!	!	!	!	!	!	!	!	!	!	!	!	!	!	!	!
4r	2.BBB\ 2.BB	16gg#X\LL 16bb\ 16ddd\	ff	1ryy	.	.	.	1ryy	.	.	.	1ryy	.	.	.	1ryy	.	.	.	2.d\	Wiecz-	d'u-	.
.	.	16ee#X\	.	.	.	.	.	.	.	.	.	.	.	.	.	.	.	.	.	.	.	.	.
.	.	16ff##X\ 16aa#X\ 16ddd\	.	.	.	.	.	.	.	.	.	.	.	.	.	.	.	.	.	.	.	.	.
.	.	16ee#\JJ	.	.	.	.	.	.	.	.	.	.	.	.	.	.	.	.	.	.	.	.	.
*	*	*rep	*	*	*	*	*	*	*	*	*	*	*	*	*	*	*	*	*	*	*	*	*
8.E#X/L	.	16gg#\LL 16bb\ 16ddd\	.	.	.	.	.	.	.	.	.	.	.	.	.	.	.	.	.	.	.	.	.
.	.	16ee#\	.	.	.	.	.	.	.	.	.	.	.	.	.	.	.	.	.	.	.	.	.
.	.	16ff##\ 16aa#\ 16ddd\	.	.	.	.	.	.	.	.	.	.	.	.	.	.	.	.	.	.	.	.	.
16F#/Jk	.	16ee#\JJ	.	.	.	.	.	.	.	.	.	.	.	.	.	.	.	.	.	.	.	.	.
*	*	*Xrep	*	*	*	*	*	*	*	*	*	*	*	*	*	*	*	*	*	*	*	*	*
*	*	*rep	*	*	*	*	*	*	*	*	*	*	*	*	*	*	*	*	*	*	*	*	*
2G#X^</	.	16gg#\LL 16bb\ 16ddd\	.	.	.	.	.	.	.	.	.	.	.	.	.	.	.	.	.	.	.	.	.
.	.	16ee#\	.	.	.	.	.	.	.	.	.	.	.	.	.	.	.	.	.	.	.	.	.
.	.	16ff##\ 16aa#\ 16ddd\	.	.	.	.	.	.	.	.	.	.	.	.	.	.	.	.	.	.	.	.	.
.	.	16ee#\JJ	.	.	.	.	.	.	.	.	.	.	.	.	.	.	.	.	.	.	.	.	.
*	*	*Xrep	*	*	*	*	*	*	*	*	*	*	*	*	*	*	*	*	*	*	*	*	*
*	*	*rep	*	*	*	*	*	*	*	*	*	*	*	*	*	*	*	*	*	*	*	*	*
.	8.CC#\L 8.C#\	16gg#\LL 16bb\ 16ddd\	.	.	.	.	.	.	.	.	.	.	.	.	.	.	.	.	.	8c#\L	-nych	-na	.
.	.	16ee#\	.	.	.	.	.	.	.	.	.	.	.	.	.	.	.	.	.	.	.	.	.
.	.	16ff##\ 16aa#\ 16ddd\	.	.	.	.	.	.	.	.	.	.	.	.	.	.	.	.	.	8B\J	.	.	.
.	16DD\Jk 16D	16ee#\JJ	.	.	.	.	.	.	.	.	.	.	.	.	.	.	.	.	.	.	.	.	.
*	*	*Xrep	*	*	*	*	*	*	*	*	*	*	*	*	*	*	*	*	*	*	*	*	*
!!LO:PB:g=original
=51	=51	=51	=51	=51	=51	=51	=51	=51	=51	=51	=51	=51	=51	=51	=51	=51	=51	=51	=51	=51	=51	=51	=51
4r	2.DD^>\ 2.D\	16ff#\LL 16aa\ 16ddd\	.	1ryy	.	.	.	1ryy	.	.	.	1ryy	.	.	.	1ryy	.	.	.	2.d\	gło-	fa-	.
.	.	16dd\	.	.	.	.	.	.	.	.	.	.	.	.	.	.	.	.	.	.	.	.	.
.	.	16ee#X\ 16gg#X\ 16ddd\	.	.	.	.	.	.	.	.	.	.	.	.	.	.	.	.	.	.	.	.	.
.	.	16dd\JJ	.	.	.	.	.	.	.	.	.	.	.	.	.	.	.	.	.	.	.	.	.
*	*	*rep	*	*	*	*	*	*	*	*	*	*	*	*	*	*	*	*	*	*	*	*	*
8.F#/L	.	16ff#\LL 16aa\ 16ddd\	.	.	.	.	.	.	.	.	.	.	.	.	.	.	.	.	.	.	.	.	.
.	.	16dd\	.	.	.	.	.	.	.	.	.	.	.	.	.	.	.	.	.	.	.	.	.
.	.	16ee#\ 16gg#\ 16ddd\	.	.	.	.	.	.	.	.	.	.	.	.	.	.	.	.	.	.	.	.	.
16G/Jk	.	16dd\JJ	.	.	.	.	.	.	.	.	.	.	.	.	.	.	.	.	.	.	.	.	.
*	*	*Xrep	*	*	*	*	*	*	*	*	*	*	*	*	*	*	*	*	*	*	*	*	*
*	*	*rep	*	*	*	*	*	*	*	*	*	*	*	*	*	*	*	*	*	*	*	*	*
4A/	.	16ff#\LL 16aa\ 16ddd\	.	.	.	.	.	.	.	.	.	.	.	.	.	.	.	.	.	.	.	.	.
.	.	16dd\	.	.	.	.	.	.	.	.	.	.	.	.	.	.	.	.	.	.	.	.	.
.	.	16ee#\ 16gg#\ 16ddd\	.	.	.	.	.	.	.	.	.	.	.	.	.	.	.	.	.	.	.	.	.
.	.	16dd\JJ	.	.	.	.	.	.	.	.	.	.	.	.	.	.	.	.	.	.	.	.	.
*	*	*Xrep	*	*	*	*	*	*	*	*	*	*	*	*	*	*	*	*	*	*	*	*	*
!	!	!LO:SIC:v:n=1:s=16ggn\	!	!	!	!	!	!	!	!	!	!	!	!	!	!	!	!	!	!	!	!	!
8.EE\L 8.E	4ryy	(>16cc#\LL 16gg#	.	.	.	.	.	.	.	.	.	.	.	.	.	.	.	.	.	8.c#\L	-dów	-me	.
.	.	16a\	.	.	.	.	.	.	.	.	.	.	.	.	.	.	.	.	.	.	.	.	.
!	!	!LO:SIC:v:n=1:s=16een\	!	!	!	!	!	!	!	!	!	!	!	!	!	!	!	!	!	!	!	!	!
.	.	16cc#\ 16ee#\	.	.	.	.	.	.	.	.	.	.	.	.	.	.	.	.	.	.	.	.	.
16FF#\Jk 16F#	.	16a\JJ)	.	.	.	.	.	.	.	.	.	.	.	.	.	.	.	.	.	16B\Jk	.	.	.
*v	*v	*	*	*	*	*	*	*	*	*	*	*	*	*	*	*	*	*	*	*	*	*	*
=52	=52	=52	=52	=52	=52	=52	=52	=52	=52	=52	=52	=52	=52	=52	=52	=52	=52	=52	=52	=52	=52	=52
4FF#^</ 4F#/	(>16aa\LL	.	1ryy	.	.	.	1ryy	.	.	.	1ryy	.	.	.	1ryy	.	.	.	8.A\	wiecz-	d'u-	.
.	16dd\	.	.	.	.	.	.	.	.	.	.	.	.	.	.	.	.	.	.	.	.	.
.	16aa\ 16ddd\	.	.	.	.	.	.	.	.	.	.	.	.	.	.	.	.	.	.	.	.	.
.	16dd\JJ	.	.	.	.	.	.	.	.	.	.	.	.	.	.	.	.	.	16A\	-nych	-na	.
4GG^</ 4G/	16gg\LL 16bb\	.	.	.	.	.	.	.	.	.	.	.	.	.	.	.	.	.	8.G\	gło-	fa-	.
.	16dd\	.	.	.	.	.	.	.	.	.	.	.	.	.	.	.	.	.	.	.	.	.
.	16ee\ 16gg\	.	.	.	.	.	.	.	.	.	.	.	.	.	.	.	.	.	.	.	.	.
.	16dd\JJ	.	.	.	.	.	.	.	.	.	.	.	.	.	.	.	.	.	16F#\	-dów	-me	.
4AA^</ 4A/	16dd\LL 16ff#\	.	.	.	.	.	.	.	.	.	.	.	.	.	.	.	.	.	(>4F#\	je-	la-	.
.	16a\	.	.	.	.	.	.	.	.	.	.	.	.	.	.	.	.	.	.	.	.	.
.	16ff#\ 16aa\	.	.	.	.	.	.	.	.	.	.	.	.	.	.	.	.	.	.	.	.	.
.	16a\JJ	.	.	.	.	.	.	.	.	.	.	.	.	.	.	.	.	.	.	.	.	.
4AA#X^</ 4A#X/	16ee\LL 16gg\	.	.	.	.	.	.	.	.	.	.	.	.	.	.	.	.	.	8E\)	.	.	.
.	16g\	.	.	.	.	.	.	.	.	.	.	.	.	.	.	.	.	.	.	.	.	.
.	16cc#\ 16ee	.	.	.	.	.	.	.	.	.	.	.	.	.	.	.	.	.	8C#\	-stem	-ce-	.
.	16g\JJ)	.	.	.	.	.	.	.	.	.	.	.	.	.	.	.	.	.	.	.	.	.
=53	=53	=53	=53	=53	=53	=53	=53	=53	=53	=53	=53	=53	=53	=53	=53	=53	=53	=53	=53	=53	=53	=53
!	!	!	!	!	!	!	!	!	!	!	!	!	!	!	!	!	!	!	!	!LO:TX:t=P:problem:łuk dopisany ołówkiem	!	!
4BB'>\ 4B	(<16cc#/LL 16ee	p	1ryy	.	.	.	1ryy	.	.	.	1ryy	.	.	.	1ryy	.	.	.	(<2BB/	pa-	-ran-	.
.	16f#/	.	.	.	.	.	.	.	.	.	.	.	.	.	.	.	.	.	.	.	.	.
.	16b/ 16dd	.	.	.	.	.	.	.	.	.	.	.	.	.	.	.	.	.	.	.	.	.
.	16f#/JJ	.	.	.	.	.	.	.	.	.	.	.	.	.	.	.	.	.	.	.	.	.
*	*rep	*	*	*	*	*	*	*	*	*	*	*	*	*	*	*	*	*	*	*	*	*
4F#'>\	16cc#/LL 16ee/	.	.	.	.	.	.	.	.	.	.	.	.	.	.	.	.	.	.	.	.	.
.	16f#/	.	.	.	.	.	.	.	.	.	.	.	.	.	.	.	.	.	.	.	.	.
.	16b/ 16dd/	.	.	.	.	.	.	.	.	.	.	.	.	.	.	.	.	.	.	.	.	.
.	16f#/JJ	.	.	.	.	.	.	.	.	.	.	.	.	.	.	.	.	.	.	.	.	.
*	*Xrep	*	*	*	*	*	*	*	*	*	*	*	*	*	*	*	*	*	*	*	*	*
*	*rep	*	*	*	*	*	*	*	*	*	*	*	*	*	*	*	*	*	*	*	*	*
4D'>\	16cc#/LL 16ee/	.	.	.	.	.	.	.	.	.	.	.	.	.	.	.	.	.	8BB/)	-stwą;	-te!	.
.	16f#/	.	.	.	.	.	.	.	.	.	.	.	.	.	.	.	.	.	.	.	.	.
.	16b/ 16dd/	.	.	.	.	.	.	.	.	.	.	.	.	.	.	.	.	.	8r	.	.	.
.	16f#/JJ	.	.	.	.	.	.	.	.	.	.	.	.	.	.	.	.	.	.	.	.	.
*	*Xrep	*	*	*	*	*	*	*	*	*	*	*	*	*	*	*	*	*	*	*	*	*
*	*rep	*	*	*	*	*	*	*	*	*	*	*	*	*	*	*	*	*	*	*	*	*
4BB'>\	16cc#/LL 16ee/	.	.	.	.	.	.	.	.	.	.	.	.	.	.	.	.	.	8A#X\L	a	chi	.
.	16f#/	.	.	.	.	.	.	.	.	.	.	.	.	.	.	.	.	.	.	.	.	.
.	16b/ 16dd/	.	.	.	.	.	.	.	.	.	.	.	.	.	.	.	.	.	8B\J	.	.	.
.	16f#/JJ)	.	.	.	.	.	.	.	.	.	.	.	.	.	.	.	.	.	.	.	.	.
*	*Xrep	*	*	*	*	*	*	*	*	*	*	*	*	*	*	*	*	*	*	*	*	*
!!LO:LB:g=original
=54	=54	=54	=54	=54	=54	=54	=54	=54	=54	=54	=54	=54	=54	=54	=54	=54	=54	=54	=54	=54	=54	=54
!LO:TX:t=P:problem:diminuendolike accent	!	!	!	!	!	!	!	!	!	!	!	!	!	!	!	!	!	!	!	!	!	!
(>4E^>\	(<16a#X/LL 16cc#/	.	1ryy	.	.	.	1ryy	.	.	.	1ryy	.	.	.	1ryy	.	.	.	4.c#^>\	któž	mai	.
.	16gn/	.	.	.	.	.	.	.	.	.	.	.	.	.	.	.	.	.	.	.	.	.
.	16b/ 16dd/	.	.	.	.	.	.	.	.	.	.	.	.	.	.	.	.	.	.	.	.	.
.	16g/JJ	.	.	.	.	.	.	.	.	.	.	.	.	.	.	.	.	.	.	.	.	.
4G\)|	16a#/LL 16cc#/	.	.	.	.	.	.	.	.	.	.	.	.	.	.	.	.	.	.	.	.	.
.	16g/	.	.	.	.	.	.	.	.	.	.	.	.	.	.	.	.	.	.	.	.	.
.	16b/ 16dd/	.	.	.	.	.	.	.	.	.	.	.	.	.	.	.	.	.	8B\	na-	sa-	.
.	16g/JJ	.	.	.	.	.	.	.	.	.	.	.	.	.	.	.	.	.	.	.	.	.
!	!	!	!	!	!	!	!	!	!	!	!	!	!	!	!	!	!	!	!LO:TX:t=P:problem:łuk dopisany ołówkiem	!	!	!
4F#\|	16a#/LL 16cc#/	.	.	.	.	.	.	.	.	.	.	.	.	.	.	.	.	.	(>4A#X\	-kar-	-ziar-	.
.	16g/	.	.	.	.	.	.	.	.	.	.	.	.	.	.	.	.	.	.	.	.	.
.	16cc#/ 16ee/	.	.	.	.	.	.	.	.	.	.	.	.	.	.	.	.	.	.	.	.	.
.	16g/JJ	.	.	.	.	.	.	.	.	.	.	.	.	.	.	.	.	.	.	.	.	.
4E\|	16b/LL 16dd/	.	.	.	.	.	.	.	.	.	.	.	.	.	.	.	.	.	8B\)	-mić	.	.
.	16g/	.	.	.	.	.	.	.	.	.	.	.	.	.	.	.	.	.	.	.	.	.
.	16cc#/ 16ee/	.	.	.	.	.	.	.	.	.	.	.	.	.	.	.	.	.	8c#\	mię	-mi	.
.	16g/JJ)	.	.	.	.	.	.	.	.	.	.	.	.	.	.	.	.	.	.	.	.	.
=55	=55	=55	=55	=55	=55	=55	=55	=55	=55	=55	=55	=55	=55	=55	=55	=55	=55	=55	=55	=55	=55	=55
(>4D^>\	16ee\LL (>16gg\	.	1ryy	.	.	.	1ryy	.	.	.	1ryy	.	.	.	1ryy	.	.	.	2B\	ra-	vuo-	.
.	16b\	.	.	.	.	.	.	.	.	.	.	.	.	.	.	.	.	.	.	.	.	.
.	16dd\ 16ff#\	.	.	.	.	.	.	.	.	.	.	.	.	.	.	.	.	.	.	.	.	.
.	16b\JJ	.	.	.	.	.	.	.	.	.	.	.	.	.	.	.	.	.	.	.	.	.
*	*rep	*	*	*	*	*	*	*	*	*	*	*	*	*	*	*	*	*	*	*	*	*
4F#\)	16ee\LL 16gg\	.	.	.	.	.	.	.	.	.	.	.	.	.	.	.	.	.	.	.	.	.
.	16b\	.	.	.	.	.	.	.	.	.	.	.	.	.	.	.	.	.	.	.	.	.
.	16dd\ 16ff#\	.	.	.	.	.	.	.	.	.	.	.	.	.	.	.	.	.	.	.	.	.
.	16b\JJ	.	.	.	.	.	.	.	.	.	.	.	.	.	.	.	.	.	.	.	.	.
*	*Xrep	*	*	*	*	*	*	*	*	*	*	*	*	*	*	*	*	*	*	*	*	*
*	*rep	*	*	*	*	*	*	*	*	*	*	*	*	*	*	*	*	*	*	*	*	*
4B\|	16ee\LL 16gg\	.	.	.	.	.	.	.	.	.	.	.	.	.	.	.	.	.	8F#\	-czy,	-le?	.
.	16b\	.	.	.	.	.	.	.	.	.	.	.	.	.	.	.	.	.	.	.	.	.
.	16dd\ 16ff#\	.	.	.	.	.	.	.	.	.	.	.	.	.	.	.	.	.	8r	.	.	.
.	16b\JJ	.	.	.	.	.	.	.	.	.	.	.	.	.	.	.	.	.	.	.	.	.
*	*Xrep	*	*	*	*	*	*	*	*	*	*	*	*	*	*	*	*	*	*	*	*	*
4D\|	16cc#\LL 16ee\	.	.	.	.	.	.	.	.	.	.	.	.	.	.	.	.	.	8A#X\L	a	chi	.
.	16f#\	.	.	.	.	.	.	.	.	.	.	.	.	.	.	.	.	.	.	.	.	.
.	16b\ 16dd\	.	.	.	.	.	.	.	.	.	.	.	.	.	.	.	.	.	8B\J	.	.	.
.	16f#\JJ)	.	.	.	.	.	.	.	.	.	.	.	.	.	.	.	.	.	.	.	.	.
=56	=56	=56	=56	=56	=56	=56	=56	=56	=56	=56	=56	=56	=56	=56	=56	=56	=56	=56	=56	=56	=56	=56
(>4E^>\	(<16a#X/LL 16cc#/	.	1ryy	.	.	.	1ryy	.	.	.	1ryy	.	.	.	1ryy	.	.	.	4.c#^>\	któž	mai	.
.	16g/	.	.	.	.	.	.	.	.	.	.	.	.	.	.	.	.	.	.	.	.	.
.	16b/ 16dd/	.	.	.	.	.	.	.	.	.	.	.	.	.	.	.	.	.	.	.	.	.
.	16g/JJ	.	.	.	.	.	.	.	.	.	.	.	.	.	.	.	.	.	.	.	.	.
*	*rep	*	*	*	*	*	*	*	*	*	*	*	*	*	*	*	*	*	*	*	*	*
4G\)	16a#/LL 16cc#/	.	.	.	.	.	.	.	.	.	.	.	.	.	.	.	.	.	.	.	.	.
.	16g/	.	.	.	.	.	.	.	.	.	.	.	.	.	.	.	.	.	.	.	.	.
.	16b/ 16dd/	.	.	.	.	.	.	.	.	.	.	.	.	.	.	.	.	.	8B\	na-	sa-	.
.	16g/JJ	.	.	.	.	.	.	.	.	.	.	.	.	.	.	.	.	.	.	.	.	.
*	*Xrep	*	*	*	*	*	*	*	*	*	*	*	*	*	*	*	*	*	*	*	*	*
!	!	!	!	!	!	!	!	!	!	!	!	!	!	!	!	!	!	!	!LO:TX:t=P:problem:łuk dopisany ołówkiem	!	!	!
4F#\	16a#/LL 16cc#/	.	.	.	.	.	.	.	.	.	.	.	.	.	.	.	.	.	(>4A#X\	-kar-	-ziar....-	.
.	16g/	.	.	.	.	.	.	.	.	.	.	.	.	.	.	.	.	.	.	.	.	.
.	16cc#/ 16ee/	.	.	.	.	.	.	.	.	.	.	.	.	.	.	.	.	.	.	.	.	.
.	16g/JJ	.	.	.	.	.	.	.	.	.	.	.	.	.	.	.	.	.	.	.	.	.
4E\	16b/LL 16dd/	.	.	.	.	.	.	.	.	.	.	.	.	.	.	.	.	.	8B\)	-mić	.	.
.	16g/	.	.	.	.	.	.	.	.	.	.	.	.	.	.	.	.	.	.	.	.	.
.	16a#/ 16cc#/	.	.	.	.	.	.	.	.	.	.	.	.	.	.	.	.	.	8c#\	mię	-mi	.
.	16g/JJ)	.	.	.	.	.	.	.	.	.	.	.	.	.	.	.	.	.	.	.	.	.
!!LO:LB:g=original
=57	=57	=57	=57	=57	=57	=57	=57	=57	=57	=57	=57	=57	=57	=57	=57	=57	=57	=57	=57	=57	=57	=57
!!mixed beam:problem
!LO:TX:t=P:problem:diminuendolike accent	!LO:TX:t=P:problem:mixed beam	!	!	!	!	!	!	!	!	!	!	!	!	!	!	!	!	!	!	!	!	!
(<4D^</	(>16ff#\LL	.	1ryy	.	.	.	1ryy	.	.	.	1ryy	.	.	.	1ryy	.	.	.	2d\	ra-	vuo-	.
.	16f#/	.	.	.	.	.	.	.	.	.	.	.	.	.	.	.	.	.	.	.	.	.
.	16ff#\	.	.	.	.	.	.	.	.	.	.	.	.	.	.	.	.	.	.	.	.	.
.	16f#/JJ	.	.	.	.	.	.	.	.	.	.	.	.	.	.	.	.	.	.	.	.	.
!!mixed beam:problem
!	!LO:TX:t=P:problem:mixed beam	!	!	!	!	!	!	!	!	!	!	!	!	!	!	!	!	!	!	!	!	!
4C#/	16ee\LL	.	.	.	.	.	.	.	.	.	.	.	.	.	.	.	.	.	.	.	.	.
.	16f#/	.	.	.	.	.	.	.	.	.	.	.	.	.	.	.	.	.	.	.	.	.
.	16ee\	.	.	.	.	.	.	.	.	.	.	.	.	.	.	.	.	.	.	.	.	.
.	16f#/JJ	.	.	.	.	.	.	.	.	.	.	.	.	.	.	.	.	.	.	.	.	.
!!mixed beam:problem
!	!LO:TX:t=P:problem:mixed beam	!	!	!	!	!	!	!	!	!	!	!	!	!	!	!	!	!	!	!	!	!
4BB/	16dd\LL	.	.	.	.	.	.	.	.	.	.	.	.	.	.	.	.	.	8d\	-czy?	-le?	.
.	16d/	.	.	.	.	.	.	.	.	.	.	.	.	.	.	.	.	.	.	.	.	.
.	16dd\	.	.	.	.	.	.	.	.	.	.	.	.	.	.	.	.	.	8r	.	.	.
.	16d/JJ	.	.	.	.	.	.	.	.	.	.	.	.	.	.	.	.	.	.	.	.	.
!!mixed beam:problem
!	!LO:TX:t=P:problem:mixed beam	!	!	!	!	!	!	!	!	!	!	!	!	!	!	!	!	!	!	!	!	!
4AA/)	16ccn\LL	.	.	.	.	.	.	.	.	.	.	.	.	.	.	.	.	.	8d\	Szar-	Dag-	.
.	16d/	.	.	.	.	.	.	.	.	.	.	.	.	.	.	.	.	.	.	.	.	.
.	16cc\	.	.	.	.	.	.	.	.	.	.	.	.	.	.	.	.	.	8d\	-pie	li an-	.
.	16d/JJ)	.	.	.	.	.	.	.	.	.	.	.	.	.	.	.	.	.	.	.	.	.
=58	=58	=58	=58	=58	=58	=58	=58	=58	=58	=58	=58	=58	=58	=58	=58	=58	=58	=58	=58	=58	=58	=58
*tremolo	*	*	*	*	*	*	*	*	*	*	*	*	*	*	*	*	*	*	*	*	*	*
16GGG/LL	(4d/ 4b/	.	1ryy	.	.	.	1ryy	.	.	.	1ryy	.	.	.	1ryy	.	.	.	4.d^>\	mię	-gel-	.
16GG/	.	.	.	.	.	.	.	.	.	.	.	.	.	.	.	.	.	.	.	.	.	.
16GGG/	.	.	.	.	.	.	.	.	.	.	.	.	.	.	.	.	.	.	.	.	.	.
16GG/	.	.	.	.	.	.	.	.	.	.	.	.	.	.	.	.	.	.	.	.	.	.
16GGG/	4e/ 4ccn/	.	.	.	.	.	.	.	.	.	.	.	.	.	.	.	.	.	.	.	.	.
16GG/	.	.	.	.	.	.	.	.	.	.	.	.	.	.	.	.	.	.	.	.	.	.
16GGG/	.	.	.	.	.	.	.	.	.	.	.	.	.	.	.	.	.	.	8cn\	żar-	-li	.
16GG/JJ	.	.	.	.	.	.	.	.	.	.	.	.	.	.	.	.	.	.	.	.	.	.
16GGG/LL	4cn/ 4a/	.	.	.	.	.	.	.	.	.	.	.	.	.	.	.	.	.	4A\	-łocz-	di	.
16GG/	.	.	.	.	.	.	.	.	.	.	.	.	.	.	.	.	.	.	.	.	.	.
16GGG/	.	.	.	.	.	.	.	.	.	.	.	.	.	.	.	.	.	.	.	.	.	.
16GG/	.	.	.	.	.	.	.	.	.	.	.	.	.	.	.	.	.	.	.	.	.	.
16GGG/	4d/) 4b/	.	.	.	.	.	.	.	.	.	.	.	.	.	.	.	.	.	4F#\	-ne	ra-	.
16GG/	.	.	.	.	.	.	.	.	.	.	.	.	.	.	.	.	.	.	.	.	.	.
16GGG/	.	.	.	.	.	.	.	.	.	.	.	.	.	.	.	.	.	.	.	.	.	.
16GG/JJ	.	.	.	.	.	.	.	.	.	.	.	.	.	.	.	.	.	.	.	.	.	.
*Xtremolo	*	*	*	*	*	*	*	*	*	*	*	*	*	*	*	*	*	*	*	*	*	*
!!LO:LB:g=original
=59	=59	=59	=59	=59	=59	=59	=59	=59	=59	=59	=59	=59	=59	=59	=59	=59	=59	=59	=59	=59	=59	=59
*	*tremolo	*	*	*	*	*	*	*	*	*	*	*	*	*	*	*	*	*	*	*	*	*
(<4.GGG/ 4.GG/	(<16g/LL	.	1ryy	.	.	.	1ryy	.	.	.	1ryy	.	.	.	1ryy	.	.	.	4G\	pta-	-pi-	.
.	16B/	.	.	.	.	.	.	.	.	.	.	.	.	.	.	.	.	.	.	.	.	.
.	16g/	.	.	.	.	.	.	.	.	.	.	.	.	.	.	.	.	.	.	.	.	.
.	16B/	.	.	.	.	.	.	.	.	.	.	.	.	.	.	.	.	.	.	.	.	.
.	16g/	.	.	.	.	.	.	.	.	.	.	.	.	.	.	.	.	.	4D\	-stwo;	-na,	.
.	16B/	.	.	.	.	.	.	.	.	.	.	.	.	.	.	.	.	.	.	.	.	.
8FFF#/ 8FF#/	16g/	.	.	.	.	.	.	.	.	.	.	.	.	.	.	.	.	.	.	.	.	.
.	16B/JJ	.	.	.	.	.	.	.	.	.	.	.	.	.	.	.	.	.	.	.	.	.
*	*Xtremolo	*	*	*	*	*	*	*	*	*	*	*	*	*	*	*	*	*	*	*	*	*
4FFFn/ 4FFn	16g/LL 16b/	.	.	.	.	.	.	.	.	.	.	.	.	.	.	.	.	.	4r	.	.	.
.	16B/	.	.	.	.	.	.	.	.	.	.	.	.	.	.	.	.	.	.	.	.	.
.	16g/ 16b/	.	.	.	.	.	.	.	.	.	.	.	.	.	.	.	.	.	.	.	.	.
.	16B/JJ	.	.	.	.	.	.	.	.	.	.	.	.	.	.	.	.	.	.	.	.	.
4EEE/) 4EE	16g#X/LL 16b/	.	.	.	.	.	.	.	.	.	.	.	.	.	.	.	.	.	8B\	a	che	.
.	16e/	.	.	.	.	.	.	.	.	.	.	.	.	.	.	.	.	.	.	.	.	.
.	16g#/ 16b/	.	.	.	.	.	.	.	.	.	.	.	.	.	.	.	.	.	8B\	któż	mi in-	.
.	16e/JJ)	.	.	.	.	.	.	.	.	.	.	.	.	.	.	.	.	.	.	.	.	.
=60	=60	=60	=60	=60	=60	=60	=60	=60	=60	=60	=60	=60	=60	=60	=60	=60	=60	=60	=60	=60	=60	=60
*tremolo	*	*	*	*	*	*	*	*	*	*	*	*	*	*	*	*	*	*	*	*	*	*
16AAA/LL	(<4e/ 4ccn/	.	1ryy	.	.	.	1ryy	.	.	.	1ryy	.	.	.	1ryy	.	.	.	4.e^>\	bę-	-cal-	.
16AA/	.	.	.	.	.	.	.	.	.	.	.	.	.	.	.	.	.	.	.	.	.	.
16AAA/	.	.	.	.	.	.	.	.	.	.	.	.	.	.	.	.	.	.	.	.	.	.
16AA/	.	.	.	.	.	.	.	.	.	.	.	.	.	.	.	.	.	.	.	.	.	.
16AAA/	4fn/ 4dd	.	.	.	.	.	.	.	.	.	.	.	.	.	.	.	.	.	.	.	.	.
16AA/	.	.	.	.	.	.	.	.	.	.	.	.	.	.	.	.	.	.	.	.	.	.
16AAA/	.	.	.	.	.	.	.	.	.	.	.	.	.	.	.	.	.	.	8d\	-dzie	-zar,	.
16AA/JJ	.	.	.	.	.	.	.	.	.	.	.	.	.	.	.	.	.	.	.	.	.	.
16AAA/LL	4d/ 4b	.	.	.	.	.	.	.	.	.	.	.	.	.	.	.	.	.	4B\	moj	chi	.
16AA/	.	.	.	.	.	.	.	.	.	.	.	.	.	.	.	.	.	.	.	.	.	.
16AAA/	.	.	.	.	.	.	.	.	.	.	.	.	.	.	.	.	.	.	.	.	.	.
16AA/	.	.	.	.	.	.	.	.	.	.	.	.	.	.	.	.	.	.	.	.	.	.
!	!LO:TX:b:t=V&colon; S&colon;	!	!	!	!	!	!	!	!	!	!	!	!	!	!	!	!	!	!LO:TX:b:t=V&colon; S&colon;	!	!	!
16AAA/	4e/) 4cc	.	.	.	.	.	.	.	.	.	.	.	.	.	.	.	.	.	4G#X\	o-	mi	.
16AA/	.	.	.	.	.	.	.	.	.	.	.	.	.	.	.	.	.	.	.	.	.	.
16AAA/	.	.	.	.	.	.	.	.	.	.	.	.	.	.	.	.	.	.	.	.	.	.
16AA/JJ	.	.	.	.	.	.	.	.	.	.	.	.	.	.	.	.	.	.	.	.	.	.
*Xtremolo	*	*	*	*	*	*	*	*	*	*	*	*	*	*	*	*	*	*	*	*	*	*
!!LO:PB:g=original
=61	=61	=61	=61	=61	=61	=61	=61	=61	=61	=61	=61	=61	=61	=61	=61	=61	=61	=61	=61	=61	=61	=61
(>4..AAA/ 4..AA/	(<16a/LL	.	1ryy	.	.	.	1ryy	.	.	.	1ryy	.	.	.	1ryy	.	.	.	4A\	-broń-	sal-	.
.	16cn/	.	.	.	.	.	.	.	.	.	.	.	.	.	.	.	.	.	.	.	.	.
.	16a/	.	.	.	.	.	.	.	.	.	.	.	.	.	.	.	.	.	.	.	.	.
.	16c/JJ	.	.	.	.	.	.	.	.	.	.	.	.	.	.	.	.	.	.	.	.	.
.	16ccn/LL	.	.	.	.	.	.	.	.	.	.	.	.	.	.	.	.	.	4cn\	-ca?	-va?	.
!	!LO:TX:b:i:t=cresc.:problem:dynamics with extention lines	!LO:HP:i:t=cresc.:ext=ud	!	!	!	!	!	!	!	!	!	!	!	!	!	!	!	!	!	!	!	!
.	16c/	<	.	.	.	.	.	.	.	.	.	.	.	.	.	.	.	.	.	.	.	.
.	16cc/	.	.	.	.	.	.	.	.	.	.	.	.	.	.	.	.	.	.	.	.	.
16GGG#X/ 16GG#X/	16c/JJ	.	.	.	.	.	.	.	.	.	.	.	.	.	.	.	.	.	.	.	.	.
4AAA/ 4AA/	16cc/LL	.	.	.	.	.	.	.	.	.	.	.	.	.	.	.	.	.	4r	.	.	.
.	16c/	.	.	.	.	.	.	.	.	.	.	.	.	.	.	.	.	.	.	.	.	.
.	16cc/	.	.	.	.	.	.	.	.	.	.	.	.	.	.	.	.	.	.	.	.	.
.	16c/JJ	.	.	.	.	.	.	.	.	.	.	.	.	.	.	.	.	.	.	.	.	.
4GGGn/ 4GGn/	16e/LL 16b-X/	.	.	.	.	.	.	.	.	.	.	.	.	.	.	.	.	.	4c\	ach	tre-	.
.	16c/	.	.	.	.	.	.	.	.	.	.	.	.	.	.	.	.	.	.	.	.	.
.	16e/ 16b-	.	.	.	.	.	.	.	.	.	.	.	.	.	.	.	.	.	.	.	.	.
.	[<16c/JJ)	.	.	.	.	.	.	.	.	.	.	.	.	.	.	.	.	.	.	.	.	.
=62	=62	=62	=62	=62	=62	=62	=62	=62	=62	=62	=62	=62	=62	=62	=62	=62	=62	=62	=62	=62	=62	=62
!	!	!	!	!	!	!	!	!	!	!	!	!	!	!	!	!	!	!	!LO:TX:a:B:t=D:color=blue:rj	!	!	!
8FFFn/) 8FFn/	8c/] 8fn/ 8a/	.	1ryy	.	.	.	1ryy	.	.	.	1ryy	.	.	.	1ryy	.	.	.	2fn\	nié	-men-	.
16r	16r	[ f	.	.	.	.	.	.	.	.	.	.	.	.	.	.	.	.	.	.	.	.
16fn>\KL 16a>\	16ccny/KL 16ffn/ 16aa/	.	.	.	.	.	.	.	.	.	.	.	.	.	.	.	.	.	.	.	.	.
8f>\ 8a>	8cc/ 8ff/ 8cccny/	.	.	.	.	.	.	.	.	.	.	.	.	.	.	.	.	.	.	.	.	.
16r>	16r	.	.	.	.	.	.	.	.	.	.	.	.	.	.	.	.	.	.	.	.	.
!	!LO:SIC:v:n=1:s=16bb-	!	!	!	!	!	!	!	!	!	!	!	!	!	!	!	!	!	!	!	!	!
16f>\Jk 16a>\	16cc/Jk 16ff/ 16bb/	.	.	.	.	.	.	.	.	.	.	.	.	.	.	.	.	.	.	.	.	.
8f>\ 8a>	8cc/ 8ff/ 8aa/	.	.	.	.	.	.	.	.	.	.	.	.	.	.	.	.	.	4A\	masz!	-da	.
16r	16r	ff	.	.	.	.	.	.	.	.	.	.	.	.	.	.	.	.	.	.	.	.
16FFn/ 16C#/ 16Fn/	16a\ 16cc\	.	.	.	.	.	.	.	.	.	.	.	.	.	.	.	.	.	.	.	.	.
8FF/L 8C# 8F	8cc\L 8aa\	.	.	.	.	.	.	.	.	.	.	.	.	.	.	.	.	.	4r	.	.	.
16r	16r	.	.	.	.	.	.	.	.	.	.	.	.	.	.	.	.	.	.	.	.	.
16FF/Jk 16F	16a\Jk 16cc\	.	.	.	.	.	.	.	.	.	.	.	.	.	.	.	.	.	.	.	.	.
!!LO:LB:g=original
=63	=63	=63	=63	=63	=63	=63	=63	=63	=63	=63	=63	=63	=63	=63	=63	=63	=63	=63	=63	=63	=63	=63
8CCn/ 8Cn/	8ee\ 8aa\	.	1ryy	.	.	.	1ryy	.	.	.	1ryy	.	.	.	1ryy	.	.	.	2e\	nié	giu-	.
16r	16r	f	.	.	.	.	.	.	.	.	.	.	.	.	.	.	.	.	.	.	.	.
*8va	*8va	*	*	*	*	*	*	*	*	*	*	*	*	*	*	*	*	*	*	*	*	*
16a\KL 16ccn\	16ee/KL 16aa/ 16cccn/	.	.	.	.	.	.	.	.	.	.	.	.	.	.	.	.	.	.	.	.	.
8a\ 8cc	8ee/ 8aa/ 8eee/	.	.	.	.	.	.	.	.	.	.	.	.	.	.	.	.	.	.	.	.	.
16r	16r	.	.	.	.	.	.	.	.	.	.	.	.	.	.	.	.	.	.	.	.	.
16a\Jk 16cc	16ee/Jk 16aa/ 16ddd/	.	.	.	.	.	.	.	.	.	.	.	.	.	.	.	.	.	.	.	.	.
8a\ 8cc	8ee/ 8aa/ 8ccc/	.	.	.	.	.	.	.	.	.	.	.	.	.	.	.	.	.	8A\	masz	-sta	.
*X8va	*X8va	*	*	*	*	*	*	*	*	*	*	*	*	*	*	*	*	*	*	*	*	*
16r	16r	.	.	.	.	.	.	.	.	.	.	.	.	.	.	.	.	.	8r	.	.	.
16C\KL 16cn\	16ee\KL 16aa\	ff	.	.	.	.	.	.	.	.	.	.	.	.	.	.	.	.	.	.	.	.
8C\ 8c	8ee\ 8ccc\	.	.	.	.	.	.	.	.	.	.	.	.	.	.	.	.	.	[>4e\	nié	giu-	.
16r	16r	.	.	.	.	.	.	.	.	.	.	.	.	.	.	.	.	.	.	.	.	.
16AA\Jk 16A\	16ee\Jk 16eee\	.	.	.	.	.	.	.	.	.	.	.	.	.	.	.	.	.	.	.	.	.
=64	=64	=64	=64	=64	=64	=64	=64	=64	=64	=64	=64	=64	=64	=64	=64	=64	=64	=64	=64	=64	=64	=64
*	*tremolo	*	*	*	*	*	*	*	*	*	*	*	*	*	*	*	*	*	*	*	*	*
8FF#/ 8F#/	16ccn\LL 16aa\	sff	1ryy	.	.	.	1ryy	.	.	.	1ryy	.	.	.	1ryy	.	.	.	4..e\]	.	.	.
.	16a\	.	.	.	.	.	.	.	.	.	.	.	.	.	.	.	.	.	.	.	.	.
8A\L	16cc\ 16aa\	.	.	.	.	.	.	.	.	.	.	.	.	.	.	.	.	.	.	.	.	.
.	16a\	.	.	.	.	.	.	.	.	.	.	.	.	.	.	.	.	.	.	.	.	.
8cn\	16cc\ 16aa\	.	.	.	.	.	.	.	.	.	.	.	.	.	.	.	.	.	.	.	.	.
.	16a\	.	.	.	.	.	.	.	.	.	.	.	.	.	.	.	.	.	.	.	.	.
8d#X\J	16cc\ 16aa\	.	.	.	.	.	.	.	.	.	.	.	.	.	.	.	.	.	.	.	.	.
.	16a\JJ	.	.	.	.	.	.	.	.	.	.	.	.	.	.	.	.	.	16d#X\	masz	-sta	.
8c\L	16cc\LL 16aa\	.	.	.	.	.	.	.	.	.	.	.	.	.	.	.	.	.	4cn\	mę-	l'i-	.
.	16a\	.	.	.	.	.	.	.	.	.	.	.	.	.	.	.	.	.	.	.	.	.
8A\	16cc\ 16aa\	.	.	.	.	.	.	.	.	.	.	.	.	.	.	.	.	.	.	.	.	.
.	16a\	.	.	.	.	.	.	.	.	.	.	.	.	.	.	.	.	.	.	.	.	.
8F#\	16cc\ 16aa\	.	.	.	.	.	.	.	.	.	.	.	.	.	.	.	.	.	4A\	-kom	-ra	.
.	16a\	.	.	.	.	.	.	.	.	.	.	.	.	.	.	.	.	.	.	.	.	.
8D#X\J	16cc\ 16aa\	.	.	.	.	.	.	.	.	.	.	.	.	.	.	.	.	.	.	.	.	.
.	16a\JJ	.	.	.	.	.	.	.	.	.	.	.	.	.	.	.	.	.	.	.	.	.
*	*Xtremolo	*	*	*	*	*	*	*	*	*	*	*	*	*	*	*	*	*	*	*	*	*
=65	=65	=65	=65	=65	=65	=65	=65	=65	=65	=65	=65	=65	=65	=65	=65	=65	=65	=65	=65	=65	=65	=65
*tremolo	*	*	*	*	*	*	*	*	*	*	*	*	*	*	*	*	*	*	*	*	*	*
16BBB/LL	8dd#X\L (>8ff#\	sff >	1ryy	.	.	.	1ryy	.	.	.	1ryy	.	.	.	1ryy	.	.	.	(>4F#\	koń-	di-	.
16BB/	.	.	.	.	.	.	.	.	.	.	.	.	.	.	.	.	.	.	.	.	.	.
16BBB/	8ee\ 8gg\	.	.	.	.	.	.	.	.	.	.	.	.	.	.	.	.	.	.	.	.	.
16BB/	.	.	.	.	.	.	.	.	.	.	.	.	.	.	.	.	.	.	.	.	.	.
16BBB/	8a\ 8ff#\	.	.	.	.	.	.	.	.	.	.	.	.	.	.	.	.	.	2B\)	.	-vi-	.
16BB/	.	.	.	.	.	.	.	.	.	.	.	.	.	.	.	.	.	.	.	.	.	.
16BBB/	8g\J 8ee\	.	.	.	.	.	.	.	.	.	.	.	.	.	.	.	.	.	.	.	.	.
16BB/	.	.	.	.	.	.	.	.	.	.	.	.	.	.	.	.	.	.	.	.	.	.
16BBB/	8f#/L 8dd#X/	.	.	.	.	.	.	.	.	.	.	.	.	.	.	.	.	.	.	.	.	.
16BB/	.	.	.	.	.	.	.	.	.	.	.	.	.	.	.	.	.	.	.	.	.	.
16BBB/	8g/ 8ee/	.	.	.	.	.	.	.	.	.	.	.	.	.	.	.	.	.	.	.	.	.
16BB/JJ	.	.	.	.	.	.	.	.	.	.	.	.	.	.	.	.	.	.	.	.	.	.
*Xtremolo	*	*	*	*	*	*	*	*	*	*	*	*	*	*	*	*	*	*	*	*	*	*
16EE/LL	8f#/ 8ddn/	.	.	.	.	.	.	.	.	.	.	.	.	.	.	.	.	.	8dn\L	-ca	-na	.
16E/	.	.	.	.	.	.	.	.	.	.	.	.	.	.	.	.	.	.	.	.	.	.
16EE/	8e/J 8cc#)/	]]	.	.	.	.	.	.	.	.	.	.	.	.	.	.	.	.	8e\J	.	.	.
16E/JJ	.	.	.	.	.	.	.	.	.	.	.	.	.	.	.	.	.	.	.	.	.	.
!!LO:LB:g=original
=66	=66	=66	=66	=66	=66	=66	=66	=66	=66	=66	=66	=66	=66	=66	=66	=66	=66	=66	=66	=66	=66	=66
!LO:TX:t=P:problem:pod pięciolinią dopisany fragment [inny podział taktów]; zapisano zgodnie z czarnym atramentem	!	!	!LO:TX:a:t=Guślarz z Chórem.:note=podkreślone	!	!	!	!LO:TX:t=P:problem:kolejność znaków F# c#	!	!	!	!LO:TX:t=P:problem:kolejność znaków f# cc#	!	!	!	!LO:TX:t=P:problem:kolejność znaków f# cc#	!	!	!	!LO:TX:t=P:problem:nad pięciolinią dopisany fragment [inny podział taktów]; zapisano zgodnie z czarnym atramentem	!	!	!
8FF#/ 8F#	(<16f#/LL 16b/	.	1r	.	.	.	1r	.	.	.	1r	.	.	.	1r	.	.	.	(>4.B^>\	nié	l'i-	.
.	16d/	.	.	.	.	.	.	.	.	.	.	.	.	.	.	.	.	.	.	.	.	.
8r	16f#/ 16b/	.	.	.	.	.	.	.	.	.	.	.	.	.	.	.	.	.	.	.	.	.
.	16d/JJ)	.	.	.	.	.	.	.	.	.	.	.	.	.	.	.	.	.	.	.	.	.
4GG/^< 4G	(<16b/LL 16dd/	.	.	.	.	.	.	.	.	.	.	.	.	.	.	.	.	.	.	.	.	.
.	16e#X/	.	.	.	.	.	.	.	.	.	.	.	.	.	.	.	.	.	.	.	.	.
.	16b/ 16dd/	.	.	.	.	.	.	.	.	.	.	.	.	.	.	.	.	.	8G\)	masz	.	.
.	16e#/JJ	.	.	.	.	.	.	.	.	.	.	.	.	.	.	.	.	.	.	.	.	.
4CC#/^< 4C#	16gn/LL 16b/ 16dd/	.	.	.	.	.	.	.	.	.	.	.	.	.	.	.	.	.	(>4.G^>\	mę-	-ra	.
.	16en/	.	.	.	.	.	.	.	.	.	.	.	.	.	.	.	.	.	.	.	.	.
.	16g/ 16b/ 16dd/	.	.	.	.	.	.	.	.	.	.	.	.	.	.	.	.	.	.	.	.	.
.	16e/JJ	.	.	.	.	.	.	.	.	.	.	.	.	.	.	.	.	.	.	.	.	.
4FF#/^< 4F#	16g/LL 16a#X/ 16cc#/	.	.	.	.	.	.	.	.	.	.	.	.	.	.	.	.	.	.	.	.	.
.	16e/	.	.	.	.	.	.	.	.	.	.	.	.	.	.	.	.	.	.	.	.	.
.	16f#/ 16a#/ 16cc#/	.	.	.	.	.	.	.	.	.	.	.	.	.	.	.	.	.	8F#\)	-kom	di	.
.	16e/JJ)	.	.	.	.	.	.	.	.	.	.	.	.	.	.	.	.	.	.	.	.	.
=67	=67	=67	=67	=67	=67	=67	=67	=67	=67	=67	=67	=67	=67	=67	=67	=67	=67	=67	=67	=67	=67	=67
!	!	!LO:DY:rj	!	!	!	!LO:DY:a:rj	!	!	!	!LO:DY:a:rj	!	!	!	!LO:DY:a:rj	!LO:TX:a:t=Chór.:note=podkreślone	!	!	!LO:DY:b:rj	!	!	!	!
8BB\L 8B	(<16d/LL 16b	fp	4.B\	Szar-	.	fp	4.B\	Szar-	Gin-	fp	4.d/	Szar-	.	fp	4.b\	Szar-	Gin-	fp	4F#\	koń-	vi-	.
.	16f#/	.	.	.	.	.	.	.	.	.	.	.	.	.	.	.	.	.	.	.	.	.
8F#'>\	16b/	.	.	.	.	.	.	.	.	.	.	.	.	.	.	.	.	.	.	.	.	.
.	16f#/JJ	.	.	.	.	.	.	.	.	.	.	.	.	.	.	.	.	.	.	.	.	.
8D'>\	16b/LL	.	.	.	.	.	.	.	.	.	.	.	.	.	.	.	.	.	4BB/	-ca!	na!	.
.	16f#/	.	.	.	.	.	.	.	.	.	.	.	.	.	.	.	.	.	.	.	.	.
8BB'>\J	16b/	.	8BB/	-pie	.	.	8B\	-pie	-sto	.	8d/	-pie	.	.	8f#/	-pie	-sto	.	.	.	.	.
.	16cc#/JJ)	.	.	.	.	.	.	.	.	.	.	.	.	.	.	.	.	.	.	.	.	.
8E'>\L	(<16dd/LL	.	8BB/	go	.	.	8B\	go	ciel!	.	8e/L	.	.	.	8g/	go	cie-	.	2r	.	.	.
.	16cc#/	.	.	.	.	.	.	.	.	.	.	.	.	.	.	.	.	.	.	.	.	.
8B'>\	16b/	.	8r	.	.	.	8r	.	.	.	8e/	.	.	.	8g/	żar-	-lo!	.	.	.	.	.
.	16g/JJ	.	.	.	.	.	.	.	.	.	.	.	.	.	.	.	.	.	.	.	.	.
8G'>\	16b/LL	.	8r	.	.	.	8r	.	.	.	8e/	.	.	.	8g/	-ło-	chi	.	.	.	.	.
.	16g/	.	.	.	.	.	.	.	.	.	.	.	.	.	.	.	.	.	.	.	.	.
8E'>\J	16b/	.	8E\	żar-	.	.	8B\	żar-	da	.	8e/J	.	.	.	8g/	-czne	lo	.	.	.	.	.
.	16cc#/JJ)	.	.	.	.	.	.	.	.	.	.	.	.	.	.	.	.	.	.	.	.	.
!!LO:PB:g=original
=68	=68	=68	=68	=68	=68	=68	=68	=68	=68	=68	=68	=68	=68	=68	=68	=68	=68	=68	=68	=68	=68	=68
8BB'>\L	(<16dd/LL	.	8BB'</	-łocz-	.	.	8B'>\	-ło-	quel-	.	4d^</	ptas-	.	.	4f#^</	ptas-	sal-	.	1r	.	.	.
.	16cc#/	.	.	.	.	.	.	.	.	.	.	.	.	.	.	.	.	.	.	.	.	.
*	*	*	*	*ij	*	*	*	*	*	*	*	*	*	*	*	*	*	*	*	*	*	*
8B'>\	16b/	.	8BB'</	-ne	.	.	8B'>\	-czne	-li an-	.	.	.	.	.	.	.	.	.	.	.	.	.
.	16f#/JJ	.	.	.	.	.	.	.	.	.	.	.	.	.	.	.	.	.	.	.	.	.
*	*	*	*	*	*	*	*	*	*	*	*	*ij	*	*	*	*	*	*	*	*	*	*
8F#'>\	16b/LL	.	8BB'</	ptas-	.	.	8B'>\	ptas-	-gel	.	8d'</	-two,	.	.	8f#'</	-two,	-va	.	.	.	.	.
.	16f#/	.	.	.	.	.	.	.	.	.	.	.	.	.	.	.	.	.	.	.	.	.
8D'>\J	16b/	.	8BB'</	-two,	.	.	8B'>\	-two,	li an-	.	8d'</	kto	.	.	8f#'</	kto	da	.	.	.	.	.
.	16dd/JJ)	.	.	.	.	.	.	.	.	.	.	.	.	.	.	.	.	.	.	.	.	.
!	!	!	!LO:T:color=red	!	!	!	!	!	!	!	!	!	!	!	!	!	!	!	!	!	!	!
8Cn'>\L	(<16ee/LL	.	[>4Cn^</	a	.	.	[<4G^</	a	-gel-	.	8cn'</	bę-	.	.	8e'</	bę-	quel-	.	.	.	.	.
.	16dd/	.	.	.	.	.	.	.	.	.	.	.	.	.	.	.	.	.	.	.	.	.
8G'>\	16ccn/	.	.	.	.	.	.	.	.	.	8c'</	-dzie	.	.	8e'</	-dzie	-li an-	.	.	.	.	.
.	16e/JJ	.	.	.	.	.	.	.	.	.	.	.	.	.	.	.	.	.	.	.	.	.
8E'>\	16g/LL	.	8C'</]	.	.	.	8G'</]	.	.	.	8c'</	mu,	.	.	8e'</	mu,	-gel-	.	.	.	.	.
.	16cc/	.	.	.	.	.	.	.	.	.	.	.	.	.	.	.	.	.	.	.	.	.
8C'>\J	16dd/	.	8E'>\	kto	.	.	8G'</	kto	-li	.	8c'</	kto	.	.	8e'</	kto	-li	.	.	.	.	.
.	16ee/JJ)	.	.	.	.	.	.	.	.	.	.	.	.	.	.	.	.	.	.	.	.	.
=69	=69	=69	=69	=69	=69	=69	=69	=69	=69	=69	=69	=69	=69	=69	=69	=69	=69	=69	=69	=69	=69	=69
*	*	*	*	*	*	*	*^	*	*	*	*	*	*	*	*	*	*	*	*	*	*	*
(<4GG/	(<16dd/LL	.	4G\	bę-	.	.	4G/	4G\	bę-	di	.	4B/	bę-	.	.	4d/	bę-	di	.	1r	.	.	.
.	16b/	.	.	.	.	.	.	.	.	.	.	.	.	.	.	.	.	.	.	.	.	.	.
.	16a/	.	.	.	.	.	.	.	.	.	.	.	.	.	.	.	.	.	.	.	.	.	.
.	16g/JJ)	.	.	.	.	.	.	.	.	.	.	.	.	.	.	.	.	.	.	.	.	.	.
4DD/	(<16dd/LL	.	4D\	-dzie	.	.	4A/	4F#\	-dzie	ra-	.	4cn/	-dzie	.	.	4d/	-dzie	ra-	.	.	.	.	.
.	16a/	.	.	.	.	.	.	.	.	.	.	.	.	.	.	.	.	.	.	.	.	.	.
.	16g/	.	.	.	.	.	.	.	.	.	.	.	.	.	.	.	.	.	.	.	.	.	.
.	16f#/JJ)	.	.	.	.	.	.	.	.	.	.	.	.	.	.	.	.	.	.	.	.	.	.
4GG/	(<16dd/LL	.	4G\	mu	.	.	4G/	4G\	mu	-pi-	.	4B/	mu	.	.	4d/	mu	-pi	.	.	.	.	.
.	16g/	.	.	.	.	.	.	.	.	.	.	.	.	.	.	.	.	.	.	.	.	.	.
.	16f#/	.	.	.	.	.	.	.	.	.	.	.	.	.	.	.	.	.	.	.	.	.	.
.	16e/JJ)	.	.	.	.	.	.	.	.	.	.	.	.	.	.	.	.	.	.	.	.	.	.
4DD/	(<16dd/LL	.	4D\	o-	.	.	4A/	4F#\	o-	-na	.	4c/	o-	.	.	4d/	o-	-na	.	.	.	.	.
*	*	*	*	*Xij	*	*	*	*	*	*	*	*	*Xij	*	*	*	*	*	*	*	*	*	*
.	16ccn/	.	.	.	.	.	.	.	.	.	.	.	.	.	.	.	.	.	.	.	.	.	.
.	16b/	.	.	.	.	.	.	.	.	.	.	.	.	.	.	.	.	.	.	.	.	.	.
.	16a/JJ)	.	.	.	.	.	.	.	.	.	.	.	.	.	.	.	.	.	.	.	.	.	.
=70	=70	=70	=70	=70	=70	=70	=70	=70	=70	=70	=70	=70	=70	=70	=70	=70	=70	=70	=70	=70	=70	=70	=70
4GG/)	(<16dd/LL	.	4G\	-broń-	.	.	(>4G/	4G\	-broń-	che-	.	(<2B/	-broń-	.	.	2.g/	-broń-	che-	.	1r	.	.	.
.	16b/	.	.	.	.	.	.	.	.	.	.	.	.	.	.	.	.	.	.	.	.	.	.
.	16a/	.	.	.	.	.	.	.	.	.	.	.	.	.	.	.	.	.	.	.	.	.	.
.	16g/JJ	.	.	.	.	.	.	.	.	.	.	.	.	.	.	.	.	.	.	.	.	.	.
(<4DD/ 4D	16gg/LL	.	4D\	.	.	.	2B\)	4ryy	.	.	.	.	.	.	.	.	.	.	.	.	.	.	.
.	16dd/	.	.	.	.	.	.	.	.	.	.	.	.	.	.	.	.	.	.	.	.	.	.
.	16b/	.	.	.	.	.	.	.	.	.	.	.	.	.	.	.	.	.	.	.	.	.	.
.	16g/JJ	.	.	.	.	.	.	.	.	.	.	.	.	.	.	.	.	.	.	.	.	.	.
4EE/ 4E	16cc#X/LL	.	(>4E\	.	.	.	.	2ryy	.	.	.	2c#X/)	.	.	.	.	.	.	.	.	.	.	.
.	16b/	.	.	.	.	.	.	.	.	.	.	.	.	.	.	.	.	.	.	.	.	.	.
.	16a/	.	.	.	.	.	.	.	.	.	.	.	.	.	.	.	.	.	.	.	.	.	.
.	16g/JJ	.	.	.	.	.	.	.	.	.	.	.	.	.	.	.	.	.	.	.	.	.	.
4FF#/) 4F#	16f#/LL	.	4F#\)	.	.	.	4A#X\	.	-ca?	lo in-	.	.	.	.	.	4f#/	-ca?	lo in-	.	.	.	.	.
.	16a#X/	.	.	.	.	.	.	.	.	.	.	.	.	.	.	.	.	.	.	.	.	.	.
.	16cc#/	.	.	.	.	.	.	.	.	.	.	.	.	.	.	.	.	.	.	.	.	.	.
.	16ee/JJ)	.	.	.	.	.	.	.	.	.	.	.	.	.	.	.	.	.	.	.	.	.	.
*	*	*	*	*	*	*	*v	*v	*	*	*	*	*	*	*	*	*	*	*	*	*	*	*
!!LO:LB:g=original
=71	=71	=71	=71	=71	=71	=71	=71	=71	=71	=71	=71	=71	=71	=71	=71	=71	=71	=71	=71	=71	=71	=71
8BB'>\L	(<16dd/LL	.	4BB/	-ca?	mai?	.	4.B\	szar-	-cal-	.	4.d/	-ca?	mai?	.	4.f#/	szar-	-cal-	.	1r	.	.	.
.	16cc#/	.	.	.	.	.	.	.	.	.	.	.	.	.	.	.	.	.	.	.	.	.
8F#'>\	16b/	.	.	.	.	.	.	.	.	.	.	.	.	.	.	.	.	.	.	.	.	.
.	16f#/JJ	.	.	.	.	.	.	.	.	.	.	.	.	.	.	.	.	.	.	.	.	.
8D'>\	16b/LL	.	4r	.	.	.	.	.	.	.	.	.	.	.	.	.	.	.	.	.	.	.
.	16f#/	.	.	.	.	.	.	.	.	.	.	.	.	.	.	.	.	.	.	.	.	.
8BB'>\J	16b/	.	.	.	.	.	8B\	-pie	-zar	.	8r	.	.	.	8f#/	-pie	-zar,	.	.	.	.	.
.	16dd/JJ)	.	.	.	.	.	.	.	.	.	.	.	.	.	.	.	.	.	.	.	.	.
!	!	!	!	!	!	!	!LO:ACC:color=gray	!	!	!	!	!	!	!	!	!	!	!	!	!	!	!
8Cn'>\L	(<16ee/LL	.	4r	.	.	.	8cn'>\	go	si	.	4r	.	.	.	8a/	go	si	.	.	.	.	.
.	16ccn/	.	.	.	.	.	.	.	.	.	.	.	.	.	.	.	.	.	.	.	.	.
8A'>\	16a/	.	.	.	.	.	8c'>\	żar-	da	.	.	.	.	.	8a/	żar-	da	.	.	.	.	.
.	16e/JJ	.	.	.	.	.	.	.	.	.	.	.	.	.	.	.	.	.	.	.	.	.
8E'>\	16a/LL	.	8r	.	.	.	8c'>\	-ło-	quel-	.	8r	.	.	.	8a/	-ło-	quel-	.	.	.	.	.
.	16e/	.	.	.	.	.	.	.	.	.	.	.	.	.	.	.	.	.	.	.	.	.
8C'>\J	16a/	.	8A'>\	Kto	chi	.	8c'>\	-czne	-li an-	.	8e'</	Kto	chi	.	8a/	-czne	-li an-	.	.	.	.	.
.	16cc/JJ)	.	.	.	.	.	.	.	.	.	.	.	.	.	.	.	.	.	.	.	.	.
=72	=72	=72	=72	=72	=72	=72	=72	=72	=72	=72	=72	=72	=72	=72	=72	=72	=72	=72	=72	=72	=72	=72
8E'</L	(<16b/LL	.	8E'>\	bę-	mai	.	4.B^>\	ptas-	-gel-	.	8e'</	bę-	mai	.	4.g^/	ptas-	-gel-	.	1r	.	.	.
.	16g/	.	.	.	.	.	.	.	.	.	.	.	.	.	.	.	.	.	.	.	.	.
8BB'</	16e/	.	8E'>\	-dzie	lo	.	.	.	.	.	8e'</	-dzie	lo	.	.	.	.	.	.	.	.	.
.	16B/JJ	.	.	.	.	.	.	.	.	.	.	.	.	.	.	.	.	.	.	.	.	.
8GG'</	16e/LL	.	8E'>\	mu	sal-	.	.	.	.	.	8e'</	mu	sal-	.	.	.	.	.	.	.	.	.
.	16B/	.	.	.	.	.	.	.	.	.	.	.	.	.	.	.	.	.	.	.	.	.
8EE'</J	16e/	.	8E'>\	o-	-va	.	8B\	-two,	-li an-	.	8e'</	o-	-va	.	8g/	-two	-li an-	.	.	.	.	.
.	16g/JJ)	.	.	.	.	.	.	.	.	.	.	.	.	.	.	.	.	.	.	.	.	.
!	!	!	!	!	!	!	!	!	!	!	!LO:SIC:v:l:s=-broń-	!	!	!	!	!	!	!	!	!	!	!
8FFn'</L	(<16a/LL	.	4Fn\	-broń-	da	.	8A'>\	szar-	-gel-	.	4cn/	-bróń-	da	.	8fn/	szar-	-gel-	.	.	.	.	.
.	16fn/	.	.	.	.	.	.	.	.	.	.	.	.	.	.	.	.	.	.	.	.	.
8Cn'</	16cn/	.	.	.	.	.	8A'>\	-pie	-li	.	.	.	.	.	8f/	-pie	-li	.	.	.	.	.
.	16A/JJ	.	.	.	.	.	.	.	.	.	.	.	.	.	.	.	.	.	.	.	.	.
8BB'</	16B/LL	.	8G\	-ca	quel-	.	8d'>\	go,	di	.	8B/	-ca?	quel-	.	8f/	go,	di	.	.	.	.	.
.	16d/	.	.	.	.	.	.	.	.	.	.	.	.	.	.	.	.	.	.	.	.	.
8GG'</J	16g/	.	8G\	Kto	-li an-	.	8d'>\	kto	ra-	.	8B/	Kto	-li an-	.	8f/	kto	ra-	.	.	.	.	.
.	16G/JJ)	.	.	.	.	.	.	.	.	.	.	.	.	.	.	.	.	.	.	.	.	.
=73	=73	=73	=73	=73	=73	=73	=73	=73	=73	=73	=73	=73	=73	=73	=73	=73	=73	=73	=73	=73	=73	=73
*	*	*	*	*ij	*	*	*	*ij	*	*	*	*ij	*	*	*	*	*	*	*	*	*	*
(<4CCn/ 4Cn	(<16g/LL	.	4Cn/	bę-	-gel-	.	4cn\	bę-	-pi-	.	4cn/	bę-	-gel-	.	4e/	bę-	-pi-	.	1r	.	.	.
.	16e/	.	.	.	.	.	.	.	.	.	.	.	.	.	.	.	.	.	.	.	.	.
.	16d/	.	.	.	.	.	.	.	.	.	.	.	.	.	.	.	.	.	.	.	.	.
.	16cn/JJ)	.	.	.	.	.	.	.	.	.	.	.	.	.	.	.	.	.	.	.	.	.
4GG/	(<16g/LL	.	4GG/	-dzie	-li	.	4d\	-dzie	-na,	.	4B/	-dzie	-li,	.	4g/	-dzie	-na,	.	.	.	.	.
.	16d/	.	.	.	.	.	.	.	.	.	.	.	.	.	.	.	.	.	.	.	.	.
.	16c/	.	.	.	.	.	.	.	.	.	.	.	.	.	.	.	.	.	.	.	.	.
.	16B/JJ)	.	.	.	.	.	.	.	.	.	.	.	.	.	.	.	.	.	.	.	.	.
4CC/ 4C	(<16g/LL	.	4C/	mu	che	.	4c\	mu	che	.	4c/	mu	che	.	4e/	mu	che	.	.	.	.	.
.	16c/	.	.	.	.	.	.	.	.	.	.	.	.	.	.	.	.	.	.	.	.	.
.	16B/	.	.	.	.	.	.	.	.	.	.	.	.	.	.	.	.	.	.	.	.	.
.	16A/JJ)	.	.	.	.	.	.	.	.	.	.	.	.	.	.	.	.	.	.	.	.	.
!	!	!	!	!	!	!	!	!	!	!	!	!	!	!	!LO:TX:b:t=V&colon; S&colon;	!	!	!	!	!	!	!
4GG/)	(<16g/LL	.	4GG/	o-	lo in-	.	4d\	o-	lo in-	.	4B/	o-	lo in-	.	4g/	o-	lo in-	.	.	.	.	.
.	16fn/	.	.	.	.	.	.	.	.	.	.	.	.	.	.	.	.	.	.	.	.	.
.	16e/	.	.	.	.	.	.	.	.	.	.	.	.	.	.	.	.	.	.	.	.	.
!	!LO:TX:b:t=V&colon; S&colon;	!	!	!	!	!	!	!	!	!	!	!	!	!	!	!	!	!	!	!	!	!
.	16d/JJ)	.	.	.	.	.	.	.	.	.	.	.	.	.	.	.	.	.	.	.	.	.
!!LO:PB:g=original
=74	=74	=74	=74	=74	=74	=74	=74	=74	=74	=74	=74	=74	=74	=74	=74	=74	=74	=74	=74	=74	=74	=74
*^	*	*	*	*	*	*	*	*	*	*	*	*	*	*	*	*	*	*	*	*	*	*
*	*	*	*	*	*	*	*	*2\right	*	*	*	*	*	*	*	*2\right	*	*	*	*	*	*	*
!	!	!	!	!LO:S:color=red	!	!	!	!	!	!	!	!	!	!	!	!	!	!	!	!	!	!	!
!	!	!	!	!LO:ACC:color=gray	!	!	!	!	!	!	!	!	!	!	!	!	!	!	!	!	!	!	!
(<4Cn/	2ryy	(<16ccn/LL	.	(>4Cn/	-broń-	.	.	2.e\	-broń-	-cal-	.	(<4cn/	-broń-	.	.	2.ccn\	-broń-	-cal-	.	1r	.	.	.
.	.	16g/	.	.	.	.	.	.	.	.	.	.	.	.	.	.	.	.	.	.	.	.	.
.	.	16e/	.	.	.	.	.	.	.	.	.	.	.	.	.	.	.	.	.	.	.	.	.
.	.	16cn/JJ)	.	.	.	.	.	.	.	.	.	.	.	.	.	.	.	.	.	.	.	.	.
4AA/	.	(<16cc/LL	.	4AA/	.	.	.	.	.	.	.	4e/	.	.	.	.	.	.	.	.	.	.	.
.	.	16a/	.	.	.	.	.	.	.	.	.	.	.	.	.	.	.	.	.	.	.	.	.
.	.	16e/	.	.	.	.	.	.	.	.	.	.	.	.	.	.	.	.	.	.	.	.	.
.	.	16c/JJ)	.	.	.	.	.	.	.	.	.	.	.	.	.	.	.	.	.	.	.	.	.
2F#/	4FF#/	(<16cc/LL	.	4AA/	.	.	.	.	.	.	.	4a/)	.	.	.	.	.	.	.	.	.	.	.
.	.	16a/	.	.	.	.	.	.	.	.	.	.	.	.	.	.	.	.	.	.	.	.	.
.	.	16f#/	.	.	.	.	.	.	.	.	.	.	.	.	.	.	.	.	.	.	.	.	.
.	.	16e/JJ)	.	.	.	.	.	.	.	.	.	.	.	.	.	.	.	.	.	.	.	.	.
.	4BB/)	(<16d#X/LL	.	4BB/)	-ca?	.	.	4d#X\	-ca?	-zar	.	8g/L	-ca?	.	.	8b\L	-ca?	-zar	.	.	.	.	.
.	.	16f#/	.	.	.	.	.	.	.	.	.	.	.	.	.	.	.	.	.	.	.	.	.
.	.	16b/	.	.	.	.	.	.	.	.	.	8f#/J	.	.	.	8a\J	.	.	.	.	.	.	.
.	.	16a/JJ)	.	.	.	.	.	.	.	.	.	.	.	.	.	.	.	.	.	.	.	.	.
*v	*v	*	*	*	*	*	*	*	*	*	*	*	*	*	*	*	*	*	*	*	*	*	*
=75	=75	=75	=75	=75	=75	=75	=75	=75	=75	=75	=75	=75	=75	=75	=75	=75	=75	=75	=75	=75	=75	=75
4EE/	(<16g/LL	.	4E\	a	.	.	4e\	a	chi	.	4e/	a	.	.	4g/	a	chi	.	1r	.	.	.
.	16B/	.	.	.	.	.	.	.	.	.	.	.	.	.	.	.	.	.	.	.	.	.
.	16e/	.	.	.	.	.	.	.	.	.	.	.	.	.	.	.	.	.	.	.	.	.
.	16g/JJ	.	.	.	.	.	.	.	.	.	.	.	.	.	.	.	.	.	.	.	.	.
(>8E^>\L	16b/LL	.	8E^>\L	kto	.	.	4B\	kto	lo	.	4f#/	kto	.	.	4b/	kto	lo	.	.	.	.	.
.	16B/	.	.	.	.	.	.	.	.	.	.	.	.	.	.	.	.	.	.	.	.	.
8D\J	16f#/	.	8D\J	.	.	.	.	.	.	.	.	.	.	.	.	.	.	.	.	.	.	.
.	16b/JJ	<	.	.	.	.	.	.	.	.	.	.	.	.	.	.	.	.	.	.	.	.
!LO:ACC:color=dodgerblue	!	!	!	!	!	!	!	!	!	!	!	!	!	!	!	!	!	!	!	!	!	!
4C#X\)	16a#X/LL	.	4C#X\	bę-	.	.	4A#X\	bę-	sal-	.	4e/	bę-	.	.	4f#/	bę-	sal-	.	.	.	.	.
.	16e/	.	.	.	.	.	.	.	.	.	.	.	.	.	.	.	.	.	.	.	.	.
.	16f#/	.	.	.	.	.	.	.	.	.	.	.	.	.	.	.	.	.	.	.	.	.
.	16a#/JJ	.	.	.	.	.	.	.	.	.	.	.	.	.	.	.	.	.	.	.	.	.
4BB\	16b/LL	.	4BB\	-dzie	.	.	4B\	-dzie	-va	.	8d/L	-dzie	.	.	8b\L	-dzie	-va?	.	.	.	.	.
*	*	*	*	*Xij	*	*	*	*Xij	*	*	*	*	*	*	*	*	*	*	*	*	*	*
.	16d/	.	.	.	.	.	.	.	.	.	.	.	.	.	.	.	.	.	.	.	.	.
.	16e/	.	.	.	.	.	.	.	.	.	8e/J	.	.	.	8cc#\J	.	.	.	.	.	.	.
.	16cc#/JJ)	[[	.	.	.	.	.	.	.	.	.	.	.	.	.	.	.	.	.	.	.	.
=76	=76	=76	=76	=76	=76	=76	=76	=76	=76	=76	=76	=76	=76	=76	=76	=76	=76	=76	=76	=76	=76	=76
2FF#/ 2F#	(<16dd/LL	>	2F#\	mu	chi	.	4B\	mu	chi	.	2.f#/	mu	.	.	2.dd\	mu	chi	.	1r	.	.	.
.	16g/	.	.	.	.	.	.	.	.	.	.	.	.	.	.	.	.	.	.	.	.	.
.	16b/	.	.	.	.	.	.	.	.	.	.	.	.	.	.	.	.	.	.	.	.	.
.	16d/	.	.	.	.	.	.	.	.	.	.	.	.	.	.	.	.	.	.	.	.	.
.	16f#/	.	.	.	.	.	4B\	o-	lo	.	.	.	.	.	.	.	.	.	.	.	.	.
.	16B/	]	.	.	.	.	.	.	.	.	.	.	.	.	.	.	.	.	.	.	.	.
.	16d/	.	.	.	.	.	.	.	.	.	.	.	.	.	.	.	.	.	.	.	.	.
.	16B/JJ	.	.	.	.	.	.	.	.	.	.	.	.	.	.	.	.	.	.	.	.	.
2FF#/	16e/LL	.	2FF#\ 2F#\	o-	lo	.	[>2e\	-broń-	sal-	.	.	.	.	.	.	.	.	.	.	.	.	.
.	16B/	.	.	.	.	.	.	.	.	.	.	.	.	.	.	.	.	.	.	.	.	.
.	16c#/	.	.	.	.	.	.	.	.	.	.	.	.	.	.	.	.	.	.	.	.	.
.	16B/	.	.	.	.	.	.	.	.	.	.	.	.	.	.	.	.	.	.	.	.	.
.	16A#X/	.	.	.	.	.	.	.	.	.	4A#X/	o-	.	.	4cc#\	o-	lo	.	.	.	.	.
*	*	*	*	*	*	*	*	*	*	*	*	*Xij	*	*	*	*	*	*	*	*	*	*
.	16c#/	.	.	.	.	.	.	.	.	.	.	.	.	.	.	.	.	.	.	.	.	.
.	16f#/	.	.	.	.	.	.	.	.	.	.	.	.	.	.	.	.	.	.	.	.	.
.	16A#/JJ)	.	.	.	.	.	.	.	.	.	.	.	.	.	.	.	.	.	.	.	.	.
!!LO:LB:g=original
=77	=77	=77	=77	=77	=77	=77	=77	=77	=77	=77	=77	=77	=77	=77	=77	=77	=77	=77	=77	=77	=77	=77
!	!	!LO:DY:b=2:rj	!	!	!	!	!	!	!	!	!	!	!	!	!	!	!	!	!	!	!	!
(>16BB\LL	8B/ 8f#/	p	8BB/	-broń-	sal-	.	8e\L]	.	.	.	8B/	-broń-	.	.	8b\	-broń-	sal-	.	1r	.	.	.
16C#\	.	.	.	.	.	.	.	.	.	.	.	.	.	.	.	.	.	.	.	.	.	.
16D\	8r	.	8r	.	.	.	8d\J	.	.	.	8r	.	.	.	8r	.	.	.	.	.	.	.
16E\JJ	.	.	.	.	.	.	.	.	.	.	.	.	.	.	.	.	.	.	.	.	.	.
16F#\LL	8A#X/ 8c#/ 8f#/	.	8F#\	-ca?	-va?	.	8c#\L	-ca?	-ra	.	8A#X/	-ca?	.	.	8f#/	-ca?	-va?	.	.	.	.	.
16E\	.	.	.	.	.	.	.	.	.	.	.	.	.	.	.	.	.	.	.	.	.	.
16D\	8r	.	8r	.	.	.	8e\J	.	.	.	8r	.	.	.	8r	.	.	.	.	.	.	.
16C#\JJ	.	.	.	.	.	.	.	.	.	.	.	.	.	.	.	.	.	.	.	.	.	.
*	*	*	*	*ij	*	*	*	*ij	*	*	*	*ij	*	*	*	*	*	*	*	*	*	*
16BB/LL	8B/ 8d/ 8f#/ 8b/	.	8BB/	Nié	ahi	.	8d\L	Nié	ahi	.	8B/	Nié	.	.	8f#/	Nié	ahi	.	.	.	.	.
16AA/	.	.	.	.	.	.	.	.	.	.	.	.	.	.	.	.	.	.	.	.	.	.
16GG/	8r	.	8r	.	.	.	8B\J	.	.	.	8r	.	.	.	8r	.	.	.	.	.	.	.
16FF#/JJ	.	.	.	.	.	.	.	.	.	.	.	.	.	.	.	.	.	.	.	.	.	.
16EE/LL	8B/ 8e/ 8g/	.	8E\	masz,	tre-	.	8B\L	masz,	tre-	.	8B/	masz,	.	.	8g/	masz,	tre-	.	.	.	.	.
16FF#/	.	.	.	.	.	.	.	.	.	.	.	.	.	.	.	.	.	.	.	.	.	.
16GG/	8r	.	8r	.	.	.	8c#\J	.	.	.	8r	.	.	.	8r	.	.	.	.	.	.	.
16AA/JJ)	.	.	.	.	.	.	.	.	.	.	.	.	.	.	.	.	.	.	.	.	.	.
=78	=78	=78	=78	=78	=78	=78	=78	=78	=78	=78	=78	=78	=78	=78	=78	=78	=78	=78	=78	=78	=78	=78
(>16BB\LL	8B/ 8d/ 8f#/	.	8BB/	nié	-men-	.	8B\L	nié	-men-	.	8d/	nié	.	.	8f#/	nié	-men-	.	1r	.	.	.
16C#\	.	.	.	.	.	.	.	.	.	.	.	.	.	.	.	.	.	.	.	.	.	.
16D\	8r	.	8r	.	.	.	8A\J	.	.	.	8r	.	.	.	8r	.	.	.	.	.	.	.
16D#X\JJ	.	.	.	.	.	.	.	.	.	.	.	.	.	.	.	.	.	.	.	.	.	.
16E\LL	8B/ 8e/ 8g/	.	8E\	masz	-da e	.	8G\L	masz	da e	.	8e/	masz	.	.	8g/	masz	-da e	.	.	.	.	.
16Dn\	.	.	.	.	.	.	.	.	.	.	.	.	.	.	.	.	.	.	.	.	.	.
16C#\	8r	.	8r	.	.	.	8B\J	.	.	.	8r	.	.	.	8r	.	.	.	.	.	.	.
16BB\JJ	.	.	.	.	.	.	.	.	.	.	.	.	.	.	.	.	.	.	.	.	.	.
16AA\LL	8A/ 8c#/ 8e/	.	8AA/	mę-	gin-	.	8A\L	mę-	gin-	.	8c#/	mę-	.	.	8e/	mę-	gin-	.	.	.	.	.
16AA#X\	.	.	.	.	.	.	.	.	.	.	.	.	.	.	.	.	.	.	.	.	.	.
16BB\	8r	.	8r	.	.	.	8G\J	.	.	.	8r	.	.	.	8r	.	.	.	.	.	.	.
16C#\JJ	.	.	.	.	.	.	.	.	.	.	.	.	.	.	.	.	.	.	.	.	.	.
16D\LL	8A/ 8d/ 8f#/	.	8D\	-kom	-sta e	.	8.F#\L	-kom	-sta	.	8d/	-kom	.	.	8f#/	-kom	-sta e	.	.	.	.	.
16C#\	.	.	.	.	.	.	.	.	.	.	.	.	.	.	.	.	.	.	.	.	.	.
16D\	8r	.	8r	.	.	.	.	.	.	.	8r	.	.	.	8r	.	.	.	.	.	.	.
16E\JJ)	.	.	.	.	.	.	16G\Jk	.	e	.	.	.	.	.	.	.	.	.	.	.	.	.
=79	=79	=79	=79	=79	=79	=79	=79	=79	=79	=79	=79	=79	=79	=79	=79	=79	=79	=79	=79	=79	=79	=79
(>16F#\LL	8c#/ 8f#/	.	8F#\	koń-	l'i-	.	8F#/	koń-	l'i-	.	8c#/	koń-	.	.	8f#/	koń-	l'i-	.	1r	.	.	.
16G\	.	.	.	.	.	.	.	.	.	.	.	.	.	.	.	.	.	.	.	.	.	.
16F#\	8r	.	8r	.	.	.	8r	.	.	.	8r	.	.	.	8r	.	.	.	.	.	.	.
16E\JJ	.	.	.	.	.	.	.	.	.	.	.	.	.	.	.	.	.	.	.	.	.	.
16D\LL	8F#/ 8B/ 8f#/	.	8D\	-ca!	-ra,	.	8F#/	-ca!	-ra,	.	8B/	-ca!	.	.	8f#/	-ca!	-ra	.	.	.	.	.
16C#\	.	.	.	.	.	.	.	.	.	.	.	.	.	.	.	.	.	.	.	.	.	.
16BB\	8r	.	8r	.	.	.	8r	.	.	.	8r	.	.	.	8r	.	.	.	.	.	.	.
16AA\JJ	.	.	.	.	.	.	.	.	.	.	.	.	.	.	.	.	.	.	.	.	.	.
16GG\LL	8G/ 8B/ 8e/	.	8E\	nié	la	.	8G/	nié	la	.	8B/	nié	.	.	8B/	nié	la	.	.	.	.	.
16FF#\	.	.	.	.	.	.	.	.	.	.	.	.	.	.	.	.	.	.	.	.	.	.
16EE\	8r	.	8r	.	.	.	8r	.	.	.	8r	.	.	.	8r	.	.	.	.	.	.	.
16GG\JJ	.	.	.	.	.	.	.	.	.	.	.	.	.	.	.	.	.	.	.	.	.	.
16FF#\LL	8F#</ 8A#X</ 8c#</	.	8F#\	masz,	tre-	.	8F#/	masz,	tre-	.	8A#X/	masz,	.	.	8e/	masz,	tre-	.	.	.	.	.
*	*	*	*	*Xij	*	*	*	*Xij	*	*	*	*Xij	*	*	*	*	*	*	*	*	*	*
16EE\	.	.	.	.	.	.	.	.	.	.	.	.	.	.	.	.	.	.	.	.	.	.
16DD\	8r	.	8r	.	.	.	8r	.	.	.	8r	.	.	.	8r	.	.	.	.	.	.	.
16CC#\JJ)	.	.	.	.	.	.	.	.	.	.	.	.	.	.	.	.	.	.	.	.	.	.
!!LO:PB:g=original
=80	=80	=80	=80	=80	=80	=80	=80	=80	=80	=80	=80	=80	=80	=80	=80	=80	=80	=80	=80	=80	=80	=80
*tremolo	*	*	*	*	*	*	*	*	*	*	*	*	*	*	*	*	*	*	*	*	*	*
16BBB\LL	8F#</ 8B</ 8d/	.	8BB/	nié	.	.	8F#/	nié	-men-	.	8B/	nié	.	.	8d/	nié	-men-	.	1r	.	.	.
16AAA#X\	.	.	.	.	.	.	.	.	.	.	.	.	.	.	.	.	.	.	.	.	.	.
16BBB\	8r	.	8r	.	.	.	8r	.	.	.	8r	.	.	.	8r	.	.	.	.	.	.	.
16AAA#\	.	.	.	.	.	.	.	.	.	.	.	.	.	.	.	.	.	.	.	.	.	.
*	*	*	*	*ij	*	*	*	*ij	*	*	*	*ij	*	*	*	*	*	*	*	*	*	*
16BBB\	8G</ 8B</ 8e/	.	8BB/	masz	.	.	8G/	masz	-da i-	.	8B/	masz	.	.	8e/	masz	-da i-	.	.	.	.	.
16AAA#\	.	.	.	.	.	.	.	.	.	.	.	.	.	.	.	.	.	.	.	.	.	.
16BBB\	8r	.	8r	.	.	.	8r	.	.	.	8r	.	.	.	8r	.	.	.	.	.	.	.
16AAA#X\JJ	.	.	.	.	.	.	.	.	.	.	.	.	.	.	.	.	.	.	.	.	.	.
16BBB\LL	8F#</ 8B</ 8d/	.	8BB/	mę-	.	.	8F#/	mę-	-ra	.	8B/	mę-	.	.	8d/	mę-	-ra	.	.	.	.	.
!LO:TX:b:t=ais:color=red	!	!	!	!	!	!	!	!	!	!	!	!	!	!	!	!	!	!	!	!	!	!
16AAA#X\	.	.	.	.	.	.	.	.	.	.	.	.	.	.	.	.	.	.	.	.	.	.
16BBB\	8r	.	8r	.	.	.	8r	.	.	.	8r	.	.	.	8r	.	.	.	.	.	.	.
16AAA#\	.	.	.	.	.	.	.	.	.	.	.	.	.	.	.	.	.	.	.	.	.	.
16BBB\	8E</ 8F#</ 8B/ 8c#/	.	8BB/	-kom	.	.	8F#/	-kom	di-	.	8B/	-kom	.	.	8c#/	-kom	di-	.	.	.	.	.
16AAA#\	.	.	.	.	.	.	.	.	.	.	.	.	.	.	.	.	.	.	.	.	.	.
16BBB\	8r	.	8r	.	.	.	8r	.	.	.	8r	.	.	.	8r	.	.	.	.	.	.	.
16AAA#X\JJ	.	.	.	.	.	.	.	.	.	.	.	.	.	.	.	.	.	.	.	.	.	.
=81	=81	=81	=81	=81	=81	=81	=81	=81	=81	=81	=81	=81	=81	=81	=81	=81	=81	=81	=81	=81	=81	=81
!	!	!LO:DY:rj	!	!	!	!	!	!	!	!	!	!	!	!	!	!	!	!	!	!	!	!
32BBB\LLL 32BB\	(2D<^>/ 2F#</ 2B</ 2d/	pp	[<1BB	koń-	.	.	[<1BB	koń-	-vi-	.	[<1B	koń-	.	.	[<1B	koń-	-vi-	.	1r	.	.	.
32BBB\ 32BB\	.	.	.	.	.	.	.	.	.	.	.	.	.	.	.	.	.	.	.	.	.	.
32BBB\ 32BB\	.	.	.	.	.	.	.	.	.	.	.	.	.	.	.	.	.	.	.	.	.	.
32BBB\ 32BB\	.	.	.	.	.	.	.	.	.	.	.	.	.	.	.	.	.	.	.	.	.	.
32BBB\ 32BB\	.	.	.	.	.	.	.	.	.	.	.	.	.	.	.	.	.	.	.	.	.	.
32BBB\ 32BB\	.	.	.	.	.	.	.	.	.	.	.	.	.	.	.	.	.	.	.	.	.	.
32BBB\ 32BB\	.	.	.	.	.	.	.	.	.	.	.	.	.	.	.	.	.	.	.	.	.	.
32BBB\ 32BB\	.	.	.	.	.	.	.	.	.	.	.	.	.	.	.	.	.	.	.	.	.	.
32BBB\ 32BB\	.	.	.	.	.	.	.	.	.	.	.	.	.	.	.	.	.	.	.	.	.	.
32BBB\ 32BB\	.	.	.	.	.	.	.	.	.	.	.	.	.	.	.	.	.	.	.	.	.	.
32BBB\ 32BB\	.	.	.	.	.	.	.	.	.	.	.	.	.	.	.	.	.	.	.	.	.	.
32BBB\ 32BB\	.	.	.	.	.	.	.	.	.	.	.	.	.	.	.	.	.	.	.	.	.	.
32BBB\ 32BB\	.	.	.	.	.	.	.	.	.	.	.	.	.	.	.	.	.	.	.	.	.	.
32BBB\ 32BB\	.	.	.	.	.	.	.	.	.	.	.	.	.	.	.	.	.	.	.	.	.	.
32BBB\ 32BB\	.	.	.	.	.	.	.	.	.	.	.	.	.	.	.	.	.	.	.	.	.	.
32BBB\JJJ 32BB\	.	.	.	.	.	.	.	.	.	.	.	.	.	.	.	.	.	.	.	.	.	.
32BBB\LLL 32BB\	4E/ 4F#/ 4B/ 4c#/	.	.	.	.	.	.	.	.	.	.	.	.	.	.	.	.	.	.	.	.	.
32BBB\ 32BB\	.	.	.	.	.	.	.	.	.	.	.	.	.	.	.	.	.	.	.	.	.	.
32BBB\ 32BB\	.	.	.	.	.	.	.	.	.	.	.	.	.	.	.	.	.	.	.	.	.	.
32BBB\ 32BB\	.	.	.	.	.	.	.	.	.	.	.	.	.	.	.	.	.	.	.	.	.	.
32BBB\ 32BB\	.	.	.	.	.	.	.	.	.	.	.	.	.	.	.	.	.	.	.	.	.	.
32BBB\ 32BB\	.	.	.	.	.	.	.	.	.	.	.	.	.	.	.	.	.	.	.	.	.	.
32BBB\ 32BB\	.	.	.	.	.	.	.	.	.	.	.	.	.	.	.	.	.	.	.	.	.	.
32BBB\ 32BB\	.	.	.	.	.	.	.	.	.	.	.	.	.	.	.	.	.	.	.	.	.	.
32BBB\ 32BB	4D/) 4F#/ 4B/	.	.	.	.	.	.	.	.	.	.	.	.	.	.	.	.	.	.	.	.	.
32BBB\ 32BB\	.	.	.	.	.	.	.	.	.	.	.	.	.	.	.	.	.	.	.	.	.	.
32BBB\ 32BB\	.	.	.	.	.	.	.	.	.	.	.	.	.	.	.	.	.	.	.	.	.	.
32BBB\ 32BB\	.	.	.	.	.	.	.	.	.	.	.	.	.	.	.	.	.	.	.	.	.	.
32BBB\ 32BB\	.	.	.	.	.	.	.	.	.	.	.	.	.	.	.	.	.	.	.	.	.	.
32BBB\ 32BB\	.	.	.	.	.	.	.	.	.	.	.	.	.	.	.	.	.	.	.	.	.	.
32BBB\ 32BB\	.	.	.	.	.	.	.	.	.	.	.	.	.	.	.	.	.	.	.	.	.	.
32BBB\JJJ 32BB\	.	.	.	.	.	.	.	.	.	.	.	.	.	.	.	.	.	.	.	.	.	.
*Xtremolo	*	*	*	*Xij	*	*	*	*Xij	*	*	*	*Xij	*	*Xij	*	*	*	*	*	*	*	*
=82	=82	=82	=82	=82	=82	=82	=82	=82	=82	=82	=82	=82	=82	=82	=82	=82	=82	=82	=82	=82	=82	=82
*	*tremolo	*	*	*	*	*	*	*	*	*	*	*	*	*	*	*	*	*	*	*	*	*
(>2DD^<\ 2D	32BB</LLL 32F#</	.	1BB]	.	.	.	1BB]	.	.	.	1B]	.	.	.	1B]	.	.	.	1r	.	.	.
.	32BB</ 32F#</	.	.	.	.	.	.	.	.	.	.	.	.	.	.	.	.	.	.	.	.	.
.	32BB</ 32F#</	.	.	.	.	.	.	.	.	.	.	.	.	.	.	.	.	.	.	.	.	.
.	32BB</ 32F#</	.	.	.	.	.	.	.	.	.	.	.	.	.	.	.	.	.	.	.	.	.
.	32BB</ 32F#</	.	.	.	.	.	.	.	.	.	.	.	.	.	.	.	.	.	.	.	.	.
.	32BB</ 32F#</	.	.	.	.	.	.	.	.	.	.	.	.	.	.	.	.	.	.	.	.	.
.	32BB</ 32F#</	.	.	.	.	.	.	.	.	.	.	.	.	.	.	.	.	.	.	.	.	.
.	32BB</ 32F#</	.	.	.	.	.	.	.	.	.	.	.	.	.	.	.	.	.	.	.	.	.
.	32BB</ 32F#</	.	.	.	.	.	.	.	.	.	.	.	.	.	.	.	.	.	.	.	.	.
.	32BB</ 32F#</	.	.	.	.	.	.	.	.	.	.	.	.	.	.	.	.	.	.	.	.	.
.	32BB</ 32F#</	.	.	.	.	.	.	.	.	.	.	.	.	.	.	.	.	.	.	.	.	.
.	32BB</ 32F#</	.	.	.	.	.	.	.	.	.	.	.	.	.	.	.	.	.	.	.	.	.
.	32BB</ 32F#</	.	.	.	.	.	.	.	.	.	.	.	.	.	.	.	.	.	.	.	.	.
.	32BB</ 32F#</	.	.	.	.	.	.	.	.	.	.	.	.	.	.	.	.	.	.	.	.	.
.	32BB</ 32F#</	.	.	.	.	.	.	.	.	.	.	.	.	.	.	.	.	.	.	.	.	.
.	32BB</JJJ 32F#</	.	.	.	.	.	.	.	.	.	.	.	.	.	.	.	.	.	.	.	.	.
*	*rep	*	*	*	*	*	*	*	*	*	*	*	*	*	*	*	*	*	*	*	*	*
4..CC#\ 4..C#	32BB/LLL 32F#	.	.	.	.	.	.	.	.	.	.	.	.	.	.	.	.	.	.	.	.	.
.	32BB</ 32F#</	.	.	.	.	.	.	.	.	.	.	.	.	.	.	.	.	.	.	.	.	.
.	32BB</ 32F#</	.	.	.	.	.	.	.	.	.	.	.	.	.	.	.	.	.	.	.	.	.
.	32BB</ 32F#</	.	.	.	.	.	.	.	.	.	.	.	.	.	.	.	.	.	.	.	.	.
.	32BB</ 32F#</	.	.	.	.	.	.	.	.	.	.	.	.	.	.	.	.	.	.	.	.	.
.	32BB</ 32F#</	.	.	.	.	.	.	.	.	.	.	.	.	.	.	.	.	.	.	.	.	.
.	32BB</ 32F#</	.	.	.	.	.	.	.	.	.	.	.	.	.	.	.	.	.	.	.	.	.
.	32BB</ 32F#</	.	.	.	.	.	.	.	.	.	.	.	.	.	.	.	.	.	.	.	.	.
.	32BB</ 32F#</	.	.	.	.	.	.	.	.	.	.	.	.	.	.	.	.	.	.	.	.	.
.	32BB</ 32F#</	.	.	.	.	.	.	.	.	.	.	.	.	.	.	.	.	.	.	.	.	.
.	32BB</ 32F#</	.	.	.	.	.	.	.	.	.	.	.	.	.	.	.	.	.	.	.	.	.
.	32BB</ 32F#</	.	.	.	.	.	.	.	.	.	.	.	.	.	.	.	.	.	.	.	.	.
.	32BB</ 32F#</	.	.	.	.	.	.	.	.	.	.	.	.	.	.	.	.	.	.	.	.	.
.	32BB</ 32F#</	.	.	.	.	.	.	.	.	.	.	.	.	.	.	.	.	.	.	.	.	.
16BBB\) 16BB	32BB/ 32F#	.	.	.	.	.	.	.	.	.	.	.	.	.	.	.	.	.	.	.	.	.
.	32BB/JJJ 32F#	.	.	.	.	.	.	.	.	.	.	.	.	.	.	.	.	.	.	.	.	.
*	*Xrep	*	*	*	*	*	*	*	*	*	*	*	*	*	*	*	*	*	*	*	*	*
*	*Xtremolo	*	*	*	*	*	*	*	*	*	*	*	*	*	*	*	*	*	*	*	*	*
!!LO:LB:g=original
=83	=83	=83	=83	=83	=83	=83	=83	=83	=83	=83	=83	=83	=83	=83	=83	=83	=83	=83	=83	=83	=83	=83
2BBB\	2D</ 2F#< 2B<	.	4BB/	-ca!	.	.	4BB/	-ca!	-na!	.	4B/	-ca!	.	.	4B/	-ca!	-na!	.	1r	.	.	.
.	.	.	4r	.	.	.	4r	.	.	.	4r	.	.	.	4r	.	.	.	.	.	.	.
!	!	!LO:DY:rj	!	!	!	!	!	!	!	!	!	!	!	!	!	!	!	!	!	!	!	!
(<4..EE\	2E<^^>/ 2G< 2B<	f	2r	.	.	.	2r	.	.	.	2r	.	.	.	2r	.	.	.	.	.	.	.
16FF#\	.	.	.	.	.	.	.	.	.	.	.	.	.	.	.	.	.	.	.	.	.	.
=84	=84	=84	=84	=84	=84	=84	=84	=84	=84	=84	=84	=84	=84	=84	=84	=84	=84	=84	=84	=84	=84	=84
2GG\	2D<^^>/ 2G< 2B<	.	1r	.	.	.	1r	.	.	.	1r	.	.	.	1r	.	.	.	1r	.	.	.
4..FF#\ 4..D#X 4..A	2B<^^>/	.	.	.	.	.	.	.	.	.	.	.	.	.	.	.	.	.	.	.	.	.
16EE\ 16E 16G	.	.	.	.	.	.	.	.	.	.	.	.	.	.	.	.	.	.	.	.	.	.
=85	=85	=85	=85	=85	=85	=85	=85	=85	=85	=85	=85	=85	=85	=85	=85	=85	=85	=85	=85	=85	=85	=85
!	!LO:TX:b:t=V&colon; S&colon;	!	!	!	!	!	!	!	!	!	!	!	!	!	!	!	!	!	!	!	!	!
!	!LO:TX:t=P:problem:diminuendolike accent	!	!	!	!	!	!	!	!	!	!	!	!	!	!	!	!	!	!	!	!	!
!LO:TX:t=P:problem:fermata pod kreską taktową	!LO:TX:t=P:problem:fermata nad kreską taktową	!LO:DY:rj	!LO:TX:t=P:problem:fermata pod kreską taktową	!	!	!	!	!	!	!	!LO:TX:b:t=fine	!	!	!	!LO:TX:t=P:problem:fermata nad kreską taktową	!	!	!	!LO:TX:t=P:problem:fermata nad kreską taktową	!	!	!
1BBB;<) 1BB	1F#<^;> 1B<	p	1r;>	.	.	.	1r;>	.	.	.	1r;>	.	.	.	1r;>	.	.	.	1r;	.	.	.
==	==	==	==	==	==	==	==	==	==	==	==	==	==	==	==	==	==	==	==	==	==	==
*-	*-	*-	*-	*-	*-	*-	*-	*-	*-	*-	*-	*-	*-	*-	*-	*-	*-	*-	*-	*-	*-	*-
!!!system-decoration: g1[(g2)][(g3)]
!!!AIN: 1 alto 3 empty 1 piano 1 soprn 1 tenor
!!!ENC: Andrzej Kubiczek
!!!END: 2021-10-02
!!!EED: Jędrzej Mróz
!!!ESR: 2021-10-11
!!!RDF**kern: > = above
!!!RDF**kern: < = below
!!!RDF**kern: @ = marked note, color=red
!!!RDF**kern: | = vertical stroke
